;FLAVOR:Marlin
;TIME:1321
;Filament used: 0.499673m
;Layer height: 0.2
;MINX:128.202
;MINY:128.202
;MINZ:0.2
;MAXX:171.798
;MAXY:171.798
;MAXZ:20.2
;Generated with Cura_SteamEngine 5.0.0
M140 S90
M105
M190 S90
M104 S230
M105
M109 S230
M82 ;absolute extrusion mode
; LONGER Start G-code
G21 ; metric values
G90 ; absolute positioning
M82 ; set extruder to absolute mode
M107 ; start with the fan off
G92 E0 ; Reset Extruder
G28 ; Home all axes
G1 Z2.0 F3000 ; Move Z Axis up little to prevent scratching of Heat Bed
G1 X0.1 Y20 Z0.3 F5000.0 ; Move to start position
G1 X0.1 Y200.0 Z0.3 F1500.0 E15 ; Draw the first line
G1 X0.4 Y200.0 Z0.3 F5000.0 ; Move to side a little
G1 X0.4 Y20 Z0.3 F1500.0 E30 ; Draw the second line
G92 E0 ; Reset Extruder
G1 Z2.0 F3000 ; Move Z Axis up little to prevent scratching of Heat Bed
G1 X5 Y20 Z0.3 F5000.0 ; Move over to prevent blob squish

G92 E0
G92 E0
G1 F2700 E-5
;LAYER_COUNT:100
;LAYER:0
M107
G1 F300 Z0.4
G0 F6000 X134.7 Y134.472 Z0.4
G1 F300 Z0.4
G0 F6000 X128.99 Y144.19
;TYPE:SKIRT
G1 F300 Z0.2
G1 F2700 E0
G1 F900 X129.276 Y143.271 E0.03201
G1 X129.532 Y142.529 E0.05812
G1 X129.936 Y141.48 E0.09551
G1 X130.324 Y140.64 E0.12628
G1 X130.674 Y139.937 E0.1524
G1 X131.21 Y138.949 E0.18979
G1 X131.721 Y138.141 E0.22158
G1 X132.161 Y137.489 E0.24775
G1 X132.823 Y136.58 E0.28515
G1 X133.41 Y135.874 E0.31568
G1 X133.927 Y135.288 E0.34168
G1 X134.7 Y134.472 E0.37906
G1 X135.426 Y133.802 E0.41192
G1 X136.019 Y133.288 E0.43802
G1 X136.894 Y132.582 E0.47541
G1 X137.646 Y132.053 E0.506
G1 X138.3 Y131.62 E0.53208
G1 X139.258 Y131.033 E0.56945
G1 X140.085 Y130.598 E0.60053
G1 X140.793 Y130.252 E0.62674
G1 X141.82 Y129.795 E0.66413
G1 X142.715 Y129.465 E0.69585
G1 X143.456 Y129.217 E0.72184
G1 X144.534 Y128.898 E0.75924
G1 X145.461 Y128.689 E0.79084
G1 X146.234 Y128.539 E0.81703
G1 X147.345 Y128.365 E0.85443
G1 X148.256 Y128.281 E0.88486
G1 X149.038 Y128.232 E0.91092
G1 X150.162 Y128.202 E0.94832
G1 X151.136 Y128.24 E0.98074
G1 X151.917 Y128.295 E1.00678
G1 X153.035 Y128.414 E1.04418
G1 X153.956 Y128.573 E1.07526
G1 X154.728 Y128.73 E1.10146
G1 X155.821 Y128.993 E1.13885
G1 X156.738 Y129.279 E1.1708
G1 X157.479 Y129.535 E1.19688
G1 X158.528 Y129.94 E1.23428
G1 X159.362 Y130.325 E1.26483
G1 X160.063 Y130.674 E1.29088
G1 X161.051 Y131.21 E1.32826
G1 X161.859 Y131.721 E1.36006
G1 X162.511 Y132.161 E1.38622
G1 X163.42 Y132.823 E1.42362
G1 X164.126 Y133.41 E1.45416
G1 X164.712 Y133.927 E1.48015
G1 X165.528 Y134.7 E1.51754
G1 X166.198 Y135.426 E1.55039
G1 X166.712 Y136.019 E1.57649
G1 X167.418 Y136.894 E1.61389
G1 X167.947 Y137.646 E1.64447
G1 X168.38 Y138.3 E1.67056
G1 X168.967 Y139.258 E1.70793
G1 X169.398 Y140.077 E1.73871
G1 X169.743 Y140.782 E1.76481
G1 X170.201 Y141.809 E1.80221
G1 X170.534 Y142.712 E1.83423
G1 X170.783 Y143.456 E1.86032
G1 X171.102 Y144.534 E1.89771
G1 X171.311 Y145.461 E1.92932
G1 X171.461 Y146.234 E1.95551
G1 X171.635 Y147.345 E1.99291
G1 X171.719 Y148.255 E2.0233
G1 X171.768 Y149.036 E2.04933
G1 X171.798 Y150.159 E2.0867
G1 X171.76 Y151.134 E2.11915
G1 X171.705 Y151.916 E2.14522
G1 X171.586 Y153.033 E2.18259
G1 X171.429 Y153.948 E2.21346
G1 X171.273 Y154.717 E2.23956
G1 X171.01 Y155.81 E2.27695
G1 X170.724 Y156.729 E2.30896
G1 X170.468 Y157.471 E2.33507
G1 X170.064 Y158.52 E2.37246
G1 X169.676 Y159.36 E2.40323
G1 X169.326 Y160.063 E2.42935
G1 X168.79 Y161.051 E2.46674
G1 X168.279 Y161.859 E2.49854
G1 X167.839 Y162.511 E2.5247
G1 X167.177 Y163.42 E2.5621
G1 X166.59 Y164.126 E2.59264
G1 X166.073 Y164.712 E2.61863
G1 X165.3 Y165.528 E2.65601
G1 X164.574 Y166.198 E2.68887
G1 X163.981 Y166.712 E2.71497
G1 X163.106 Y167.418 E2.75237
G1 X162.354 Y167.947 E2.78295
G1 X161.7 Y168.38 E2.80903
G1 X160.742 Y168.967 E2.8464
G1 X159.915 Y169.402 E2.87748
G1 X159.207 Y169.748 E2.90369
G1 X158.18 Y170.205 E2.94108
G1 X157.285 Y170.535 E2.97281
G1 X156.544 Y170.783 E2.9988
G1 X155.466 Y171.102 E3.03619
G1 X154.539 Y171.311 E3.06779
G1 X153.766 Y171.461 E3.09398
G1 X152.655 Y171.635 E3.13139
G1 X151.744 Y171.719 E3.16181
G1 X150.962 Y171.768 E3.18787
G1 X149.838 Y171.798 E3.22527
G1 X148.864 Y171.76 E3.25769
G1 X148.083 Y171.705 E3.28373
G1 X146.965 Y171.586 E3.32113
G1 X146.044 Y171.427 E3.35221
G1 X145.272 Y171.27 E3.37842
G1 X144.179 Y171.007 E3.41581
G1 X143.262 Y170.721 E3.44776
G1 X142.521 Y170.465 E3.47383
G1 X141.472 Y170.06 E3.51123
G1 X140.638 Y169.675 E3.54178
G1 X139.937 Y169.326 E3.56783
G1 X138.949 Y168.79 E3.60521
G1 X138.141 Y168.279 E3.63701
G1 X137.489 Y167.839 E3.66317
G1 X136.58 Y167.177 E3.70057
G1 X135.871 Y166.588 E3.73123
G1 X135.283 Y166.069 E3.75732
G1 X134.468 Y165.295 E3.7947
G1 X133.797 Y164.569 E3.82758
G1 X133.285 Y163.978 E3.85359
G1 X132.58 Y163.102 E3.89099
G1 X132.05 Y162.35 E3.92159
G1 X131.616 Y161.694 E3.94775
G1 X131.029 Y160.735 E3.98514
G1 X130.597 Y159.913 E4.01603
G1 X130.252 Y159.207 E4.04217
G1 X129.795 Y158.18 E4.07955
G1 X129.465 Y157.285 E4.11128
G1 X129.217 Y156.544 E4.13727
G1 X128.898 Y155.466 E4.17466
G1 X128.705 Y154.62 E4.20352
G1 X128.556 Y153.873 E4.22886
G1 X128.376 Y152.763 E4.26626
G1 X128.281 Y151.759 E4.2998
G1 X128.231 Y150.952 E4.32669
G1 X128.202 Y149.828 E4.36409
G1 X128.24 Y148.866 E4.39611
G1 X128.295 Y148.084 E4.42218
G1 X128.414 Y146.967 E4.45955
G1 X128.571 Y146.052 E4.49042
G1 X128.727 Y145.283 E4.51652
G1 X128.99 Y144.19 E4.55391
G1 F2700 E-0.44609
G1 F300 Z0.4
G0 F6000 X129.002 Y149.808 Z0.4
G1 F300 Z0.2
G1 F2700 E4.55391
G1 F900 X129.038 Y148.923 E4.58337
G1 X129.093 Y148.141 E4.60945
G1 X129.21 Y147.052 E4.64587
G1 X129.355 Y146.211 E4.67426
G1 X129.511 Y145.442 E4.70036
G1 X129.768 Y144.377 E4.7368
G1 X130.032 Y143.532 E4.76624
G1 X130.288 Y142.79 E4.79235
G1 X130.683 Y141.768 E4.82879
G1 X131.04 Y140.997 E4.85705
G1 X131.39 Y140.294 E4.88317
G1 X131.914 Y139.332 E4.9196
G1 X132.384 Y138.588 E4.94887
G1 X132.824 Y137.936 E4.97503
G1 X133.47 Y137.051 E5.01148
G1 X134.01 Y136.403 E5.03953
G1 X134.527 Y135.817 E5.06552
G1 X135.281 Y135.023 E5.10194
G1 X135.95 Y134.406 E5.13221
G1 X136.543 Y133.892 E5.15831
G1 X137.397 Y133.206 E5.19475
G1 X138.087 Y132.72 E5.22282
G1 X138.741 Y132.287 E5.2489
G1 X139.676 Y131.716 E5.28534
G1 X140.436 Y131.317 E5.31389
G1 X141.144 Y130.971 E5.3401
G1 X142.145 Y130.527 E5.37652
G1 X142.969 Y130.224 E5.40572
G1 X143.71 Y129.976 E5.43171
G1 X144.761 Y129.666 E5.46816
G1 X145.614 Y129.475 E5.49723
G1 X146.387 Y129.325 E5.52342
G1 X147.469 Y129.155 E5.55985
G1 X148.306 Y129.079 E5.5878
G1 X149.088 Y129.03 E5.61387
G1 X150.183 Y129.002 E5.6503
G1 X151.08 Y129.038 E5.68016
G1 X151.861 Y129.093 E5.7062
G1 X152.95 Y129.21 E5.74262
G1 X153.796 Y129.357 E5.77118
G1 X154.568 Y129.514 E5.79739
G1 X155.633 Y129.771 E5.83383
G1 X156.477 Y130.035 E5.86324
G1 X157.218 Y130.291 E5.88931
G1 X158.24 Y130.686 E5.92576
G1 X159.005 Y131.041 E5.95381
G1 X159.706 Y131.39 E5.97985
G1 X160.668 Y131.914 E6.01629
G1 X161.412 Y132.384 E6.04556
G1 X162.064 Y132.824 E6.07172
G1 X162.949 Y133.47 E6.10816
G1 X163.597 Y134.01 E6.13622
G1 X164.183 Y134.527 E6.16221
G1 X164.977 Y135.281 E6.19863
G1 X165.594 Y135.95 E6.22889
G1 X166.108 Y136.543 E6.255
G1 X166.794 Y137.397 E6.29143
G1 X167.28 Y138.087 E6.3195
G1 X167.713 Y138.741 E6.34559
G1 X168.284 Y139.676 E6.38203
G1 X168.679 Y140.429 E6.41031
G1 X169.024 Y141.134 E6.43641
G1 X169.469 Y142.134 E6.47282
G1 X169.776 Y142.966 E6.50231
G1 X170.025 Y143.71 E6.52841
G1 X170.334 Y144.761 E6.56484
G1 X170.525 Y145.614 E6.59392
G1 X170.675 Y146.387 E6.62011
G1 X170.845 Y147.469 E6.65654
G1 X170.921 Y148.305 E6.68446
G1 X170.97 Y149.086 E6.71048
G1 X170.998 Y150.181 E6.74692
G1 X170.962 Y151.077 E6.77674
G1 X170.907 Y151.859 E6.80281
G1 X170.79 Y152.948 E6.83924
G1 X170.645 Y153.789 E6.86763
G1 X170.489 Y154.558 E6.89373
G1 X170.232 Y155.623 E6.93016
G1 X169.968 Y156.468 E6.95961
G1 X169.712 Y157.21 E6.98572
G1 X169.317 Y158.232 E7.02216
G1 X168.96 Y159.003 E7.05042
G1 X168.61 Y159.706 E7.07654
G1 X168.086 Y160.668 E7.11297
G1 X167.616 Y161.412 E7.14224
G1 X167.176 Y162.064 E7.1684
G1 X166.53 Y162.949 E7.20485
G1 X165.99 Y163.597 E7.2329
G1 X165.473 Y164.183 E7.25889
G1 X164.719 Y164.977 E7.29531
G1 X164.05 Y165.594 E7.32558
G1 X163.457 Y166.108 E7.35168
G1 X162.603 Y166.794 E7.38812
G1 X161.913 Y167.28 E7.41619
G1 X161.259 Y167.713 E7.44227
G1 X160.324 Y168.284 E7.47871
G1 X159.564 Y168.683 E7.50726
G1 X158.856 Y169.029 E7.53347
G1 X157.855 Y169.473 E7.56989
G1 X157.031 Y169.776 E7.59909
G1 X156.29 Y170.024 E7.62508
G1 X155.239 Y170.334 E7.66153
G1 X154.386 Y170.525 E7.6906
G1 X153.613 Y170.675 E7.71679
G1 X152.531 Y170.845 E7.75322
G1 X151.694 Y170.921 E7.78117
G1 X150.912 Y170.97 E7.80723
G1 X149.817 Y170.998 E7.84367
G1 X148.92 Y170.962 E7.87352
G1 X148.139 Y170.907 E7.89957
G1 X147.05 Y170.79 E7.93599
G1 X146.204 Y170.643 E7.96455
G1 X145.432 Y170.486 E7.99076
G1 X144.367 Y170.229 E8.02719
G1 X143.523 Y169.965 E8.05661
G1 X142.782 Y169.709 E8.08268
G1 X141.76 Y169.314 E8.11913
G1 X140.995 Y168.959 E8.14718
G1 X140.294 Y168.61 E8.17322
G1 X139.332 Y168.086 E8.20966
G1 X138.588 Y167.616 E8.23892
G1 X137.936 Y167.176 E8.26509
G1 X137.051 Y166.53 E8.30153
G1 X136.401 Y165.988 E8.32968
G1 X135.813 Y165.469 E8.35576
G1 X135.019 Y164.715 E8.39218
G1 X134.402 Y164.045 E8.42248
G1 X133.89 Y163.454 E8.44848
G1 X133.203 Y162.6 E8.48494
G1 X132.717 Y161.908 E8.51306
G1 X132.283 Y161.252 E8.53922
G1 X131.712 Y160.318 E8.57563
G1 X131.316 Y159.562 E8.60402
G1 X130.971 Y158.856 E8.63016
G1 X130.526 Y157.855 E8.66659
G1 X130.224 Y157.031 E8.69578
G1 X129.976 Y156.29 E8.72177
G1 X129.666 Y155.239 E8.75821
G1 X129.49 Y154.463 E8.78468
G1 X129.341 Y153.716 E8.81001
G1 X129.166 Y152.635 E8.84644
G1 X129.08 Y151.71 E8.87734
G1 X129.03 Y150.903 E8.90423
G1 X129.002 Y149.808 E8.94066
G0 F6000 X129.402 Y149.798
G1 F900 X129.437 Y148.951 E8.96885
G1 X129.492 Y148.169 E8.99493
G1 X129.608 Y147.094 E9.03089
G1 X129.747 Y146.29 E9.05803
G1 X129.903 Y145.521 E9.08413
G1 X130.157 Y144.471 E9.12006
G1 X130.41 Y143.662 E9.14825
G1 X130.666 Y142.92 E9.17436
G1 X131.056 Y141.913 E9.21027
G1 X131.398 Y141.175 E9.23733
G1 X131.748 Y140.472 E9.26345
G1 X132.265 Y139.523 E9.29939
G1 X132.716 Y138.812 E9.32739
G1 X133.156 Y138.16 E9.35356
G1 X133.793 Y137.287 E9.3895
G1 X134.31 Y136.668 E9.41632
G1 X134.827 Y136.082 E9.44232
G1 X135.571 Y135.299 E9.47824
G1 X136.212 Y134.709 E9.50722
G1 X136.805 Y134.195 E9.53332
G1 X137.647 Y133.518 E9.56925
G1 X138.308 Y133.053 E9.59613
G1 X138.962 Y132.62 E9.62222
G1 X139.885 Y132.058 E9.65816
G1 X140.612 Y131.677 E9.68546
G1 X141.32 Y131.331 E9.71167
G1 X142.307 Y130.892 E9.7476
G1 X143.096 Y130.603 E9.77555
G1 X143.837 Y130.355 E9.80154
G1 X144.874 Y130.05 E9.83749
G1 X145.69 Y129.867 E9.8653
G1 X146.463 Y129.717 E9.89149
G1 X147.53 Y129.551 E9.92741
G1 X148.331 Y129.479 E9.95416
G1 X149.113 Y129.43 E9.98022
G1 X150.193 Y129.402 E10.01615
G1 X151.052 Y129.437 E10.04474
G1 X151.833 Y129.492 E10.07078
G1 X152.907 Y129.608 E10.10671
G1 X153.717 Y129.749 E10.13406
G1 X154.489 Y129.906 E10.16026
G1 X155.539 Y130.16 E10.19619
G1 X156.346 Y130.413 E10.22432
G1 X157.087 Y130.669 E10.2504
G1 X158.095 Y131.06 E10.28636
G1 X158.827 Y131.399 E10.31319
G1 X159.528 Y131.748 E10.33923
G1 X160.477 Y132.265 E10.37518
G1 X161.188 Y132.716 E10.40318
G1 X161.84 Y133.156 E10.42934
G1 X162.713 Y133.793 E10.46529
G1 X163.332 Y134.31 E10.49211
G1 X163.918 Y134.827 E10.5181
G1 X164.701 Y135.571 E10.55403
G1 X165.291 Y136.212 E10.583
G1 X165.805 Y136.805 E10.6091
G1 X166.482 Y137.647 E10.64504
G1 X166.947 Y138.308 E10.67192
G1 X167.38 Y138.962 E10.69801
G1 X167.942 Y139.885 E10.73395
G1 X168.32 Y140.605 E10.76099
G1 X168.665 Y141.31 E10.7871
G1 X169.104 Y142.297 E10.82303
G1 X169.396 Y143.093 E10.85123
G1 X169.645 Y143.837 E10.87732
G1 X169.95 Y144.874 E10.91328
G1 X170.133 Y145.69 E10.94109
G1 X170.283 Y146.463 E10.96728
G1 X170.449 Y147.53 E11.00319
G1 X170.521 Y148.33 E11.02991
G1 X170.57 Y149.111 E11.05594
G1 X170.598 Y150.191 E11.09187
G1 X170.563 Y151.049 E11.12043
G1 X170.508 Y151.831 E11.14651
G1 X170.392 Y152.906 E11.18247
G1 X170.253 Y153.71 E11.20961
G1 X170.097 Y154.479 E11.2357
G1 X169.843 Y155.529 E11.27163
G1 X169.59 Y156.338 E11.29983
G1 X169.334 Y157.08 E11.32593
G1 X168.944 Y158.087 E11.36185
G1 X168.602 Y158.825 E11.3889
G1 X168.252 Y159.528 E11.41502
G1 X167.735 Y160.477 E11.45097
G1 X167.284 Y161.188 E11.47897
G1 X166.844 Y161.84 E11.50513
G1 X166.207 Y162.713 E11.54108
G1 X165.69 Y163.332 E11.5679
G1 X165.173 Y163.918 E11.59389
G1 X164.429 Y164.701 E11.62982
G1 X163.788 Y165.291 E11.65879
G1 X163.195 Y165.805 E11.68489
G1 X162.353 Y166.482 E11.72083
G1 X161.692 Y166.947 E11.74771
G1 X161.038 Y167.38 E11.7738
G1 X160.115 Y167.942 E11.80974
G1 X159.388 Y168.323 E11.83704
G1 X158.68 Y168.669 E11.86325
G1 X157.693 Y169.108 E11.89918
G1 X156.904 Y169.397 E11.92712
G1 X156.163 Y169.645 E11.95311
G1 X155.126 Y169.95 E11.98906
G1 X154.31 Y170.133 E12.01688
G1 X153.537 Y170.283 E12.04307
G1 X152.47 Y170.449 E12.07898
G1 X151.669 Y170.521 E12.10573
G1 X150.887 Y170.57 E12.13179
G1 X149.807 Y170.598 E12.16773
G1 X148.948 Y170.563 E12.19632
G1 X148.167 Y170.508 E12.22236
G1 X147.093 Y170.392 E12.25829
G1 X146.283 Y170.251 E12.28564
G1 X145.511 Y170.094 E12.31184
G1 X144.461 Y169.84 E12.34777
G1 X143.654 Y169.587 E12.3759
G1 X142.913 Y169.331 E12.40197
G1 X141.905 Y168.94 E12.43793
G1 X141.173 Y168.601 E12.46476
G1 X140.472 Y168.252 E12.49081
G1 X139.523 Y167.735 E12.52675
G1 X138.812 Y167.284 E12.55476
G1 X138.16 Y166.844 E12.58092
G1 X137.287 Y166.207 E12.61686
G1 X136.665 Y165.688 E12.64381
G1 X136.077 Y165.169 E12.66989
G1 X135.294 Y164.424 E12.70584
G1 X134.704 Y163.783 E12.73482
G1 X134.192 Y163.192 E12.76082
G1 X133.515 Y162.35 E12.79676
G1 X133.051 Y161.688 E12.82365
G1 X132.617 Y161.032 E12.84981
G1 X132.054 Y160.109 E12.88577
G1 X131.675 Y159.386 E12.91292
G1 X131.33 Y158.68 E12.93905
G1 X130.892 Y157.692 E12.975
G1 X130.603 Y156.904 E13.00291
G1 X130.355 Y156.163 E13.0289
G1 X130.05 Y155.126 E13.06485
G1 X129.882 Y154.385 E13.09013
G1 X129.733 Y153.638 E13.11546
G1 X129.561 Y152.571 E13.15141
G1 X129.479 Y151.685 E13.181
G1 X129.429 Y150.878 E13.20789
G1 X129.402 Y149.798 E13.24383
G0 F6000 X129.802 Y149.788
G1 F900 X129.836 Y148.979 E13.27076
G1 X129.891 Y148.197 E13.29683
G1 X130.006 Y147.137 E13.33229
G1 X130.139 Y146.37 E13.35819
G1 X130.295 Y145.601 E13.38428
G1 X130.546 Y144.565 E13.41974
G1 X130.788 Y143.793 E13.44665
G1 X131.044 Y143.051 E13.47275
G1 X131.43 Y142.057 E13.50822
G1 X131.756 Y141.353 E13.53402
G1 X132.106 Y140.65 E13.56014
G1 X132.617 Y139.715 E13.59558
G1 X133.048 Y139.036 E13.62233
G1 X133.488 Y138.384 E13.64849
G1 X134.116 Y137.523 E13.68394
G1 X134.61 Y136.933 E13.70953
G1 X135.127 Y136.347 E13.73552
G1 X135.861 Y135.574 E13.77098
G1 X136.474 Y135.011 E13.79866
G1 X137.067 Y134.497 E13.82476
G1 X137.898 Y133.83 E13.8602
G1 X138.529 Y133.387 E13.88585
G1 X139.183 Y132.954 E13.91193
G1 X140.093 Y132.399 E13.94738
G1 X140.787 Y132.036 E13.97343
G1 X141.495 Y131.69 E13.99964
G1 X142.469 Y131.258 E14.03508
G1 X143.223 Y130.982 E14.06179
G1 X143.964 Y130.734 E14.08778
G1 X144.987 Y130.434 E14.12324
G1 X145.766 Y130.26 E14.14978
G1 X146.539 Y130.11 E14.17597
G1 X147.592 Y129.946 E14.21142
G1 X148.356 Y129.878 E14.23693
G1 X149.138 Y129.829 E14.26299
G1 X150.203 Y129.802 E14.29842
G1 X151.024 Y129.836 E14.32575
G1 X151.805 Y129.891 E14.35179
G1 X152.864 Y130.006 E14.38722
G1 X153.637 Y130.141 E14.41332
G1 X154.409 Y130.298 E14.43952
G1 X155.444 Y130.549 E14.47495
G1 X156.216 Y130.791 E14.50186
G1 X156.957 Y131.047 E14.52793
G1 X157.95 Y131.433 E14.56337
G1 X158.649 Y131.757 E14.58899
G1 X159.35 Y132.106 E14.61504
G1 X160.285 Y132.617 E14.65048
G1 X160.964 Y133.048 E14.67722
G1 X161.616 Y133.488 E14.70339
G1 X162.477 Y134.116 E14.73883
G1 X163.067 Y134.61 E14.76443
G1 X163.653 Y135.127 E14.79042
G1 X164.426 Y135.861 E14.82587
G1 X164.989 Y136.474 E14.85355
G1 X165.503 Y137.067 E14.87965
G1 X166.17 Y137.898 E14.9151
G1 X166.613 Y138.529 E14.94074
G1 X167.046 Y139.183 E14.96683
G1 X167.601 Y140.093 E15.00228
G1 X167.961 Y140.78 E15.02807
