;FLAVOR:Marlin
;TIME:14204
;Filament used: 13.4333m
;Layer height: 0.2
;MINX:86.208
;MINY:112.95
;MINZ:0.2
;MAXX:196.536
;MAXY:187.05
;MAXZ:52
;Generated with Cura_SteamEngine 5.0.0
M140 S95
M105
M190 S95
M104 S230
M105
M109 S230
M82 ;absolute extrusion mode
; LONGER Start G-code
G21 ; metric values
G90 ; absolute positioning
M82 ; set extruder to absolute mode
M107 ; start with the fan off
G92 E0 ; Reset Extruder
G28 ; Home all axes
G1 Z2.0 F3000 ; Move Z Axis up little to prevent scratching of Heat Bed
G1 X0.1 Y20 Z0.3 F5000.0 ; Move to start position
G1 X0.1 Y200.0 Z0.3 F1500.0 E15 ; Draw the first line
G1 X0.4 Y200.0 Z0.3 F5000.0 ; Move to side a little
G1 X0.4 Y20 Z0.3 F1500.0 E30 ; Draw the second line
G92 E0 ; Reset Extruder
G1 Z2.0 F3000 ; Move Z Axis up little to prevent scratching of Heat Bed
G1 X5 Y20 Z0.3 F5000.0 ; Move over to prevent blob squish

G92 E0
G92 E0
G1 F2700 E-5
;LAYER_COUNT:260
;LAYER:0
M107
G1 F300 Z0.4
G0 F6000 X92.5 Y116.131 Z0.4
G1 F300 Z0.4
G0 F6000 X86.368 Y126.509
;TYPE:SKIRT
G1 F300 Z0.2
G1 F2700 E0
G1 F900 X86.567 Y125.403 E0.03738
G1 X86.844 Y124.313 E0.07478
G1 X87.198 Y123.246 E0.11217
G1 X87.626 Y122.207 E0.14955
G1 X88.128 Y121.201 E0.18694
G1 X88.7 Y120.233 E0.22434
G1 X89.339 Y119.309 E0.2617
G1 X90.042 Y118.432 E0.29909
G1 X90.806 Y117.607 E0.33649
G1 X91.627 Y116.839 E0.37388
G1 X92.5 Y116.131 E0.41126
G1 X93.421 Y115.487 E0.44864
G1 X94.386 Y114.91 E0.48604
G1 X95.389 Y114.403 E0.52342
G1 X96.426 Y113.969 E0.56081
G1 X97.491 Y113.609 E0.5982
G1 X98.579 Y113.327 E0.63558
G1 X99.685 Y113.122 E0.67299
G1 X100.802 Y112.996 E0.71038
G1 X102.008 Y112.95 E0.75052
G1 X134.008 Y112.95 E1.81484
G1 X135.131 Y112.99 E1.85222
G1 X136.249 Y113.11 E1.88962
G1 X137.355 Y113.309 E1.92699
G1 X138.445 Y113.586 E1.9644
G1 X139.512 Y113.94 E2.00179
G1 X140.551 Y114.368 E2.03917
G1 X141.375 Y114.779 E2.06979
G1 X142.12 Y114.403 E2.09755
G1 X143.157 Y113.969 E2.13494
G1 X144.222 Y113.609 E2.17233
G1 X145.31 Y113.326 E2.20972
G1 X146.415 Y113.122 E2.24709
G1 X147.532 Y112.996 E2.28448
G1 X148.738 Y112.95 E2.32462
G1 X180.736 Y112.95 E3.38888
G1 X181.859 Y112.99 E3.42625
G1 X182.977 Y113.11 E3.46365
G1 X184.083 Y113.309 E3.50103
G1 X185.173 Y113.586 E3.53843
G1 X186.24 Y113.94 E3.57582
G1 X187.279 Y114.368 E3.6132
G1 X188.285 Y114.87 E3.65059
G1 X189.253 Y115.442 E3.68799
G1 X190.177 Y116.081 E3.72536
G1 X191.054 Y116.784 E3.76274
G1 X191.879 Y117.548 E3.80014
G1 X192.647 Y118.369 E3.83753
G1 X193.355 Y119.242 E3.87491
G1 X193.999 Y120.163 E3.91229
G1 X194.576 Y121.128 E3.94969
G1 X195.083 Y122.131 E3.98707
G1 X195.517 Y123.168 E4.02446
G1 X195.877 Y124.233 E4.06185
G1 X196.159 Y125.321 E4.09923
G1 X196.364 Y126.427 E4.13664
G1 X196.49 Y127.544 E4.17403
G1 X196.536 Y128.752 E4.21424
G1 X196.531 Y171.252 E5.62779
G1 X196.491 Y172.375 E5.66517
G1 X196.371 Y173.493 E5.70257
G1 X196.172 Y174.599 E5.73994
G1 X195.895 Y175.689 E5.77735
G1 X195.541 Y176.756 E5.81474
G1 X195.112 Y177.795 E5.85213
G1 X194.61 Y178.801 E5.88952
G1 X194.038 Y179.768 E5.92689
G1 X193.399 Y180.693 E5.96428
G1 X192.695 Y181.57 E6.00169
G1 X191.931 Y182.394 E6.03906
G1 X191.111 Y183.162 E6.07643
G1 X190.237 Y183.87 E6.11384
G1 X189.316 Y184.514 E6.15122
G1 X188.351 Y185.091 E6.18861
G1 X187.348 Y185.598 E6.22599
G1 X186.311 Y186.032 E6.26338
G1 X185.246 Y186.391 E6.30076
G1 X184.158 Y186.674 E6.33815
G1 X183.053 Y186.879 E6.37553
G1 X181.935 Y187.004 E6.41295
G1 X180.731 Y187.05 E6.45302
G1 X148.736 Y187.05 E7.51718
G1 X147.613 Y187.01 E7.55456
G1 X146.495 Y186.89 E7.59196
G1 X145.389 Y186.691 E7.62933
G1 X144.299 Y186.414 E7.66674
G1 X143.232 Y186.06 E7.70413
G1 X142.193 Y185.632 E7.7415
G1 X141.37 Y185.221 E7.7721
G1 X140.627 Y185.597 E7.7998
G1 X139.59 Y186.031 E7.83719
G1 X138.525 Y186.391 E7.87458
G1 X137.437 Y186.673 E7.91196
G1 X136.331 Y186.878 E7.94937
G1 X135.214 Y187.004 E7.98676
G1 X134.008 Y187.05 E8.0269
G1 X102.008 Y187.05 E9.09122
G1 X100.885 Y187.01 E9.1286
G1 X99.767 Y186.89 E9.166
G1 X98.661 Y186.691 E9.20337
G1 X97.571 Y186.414 E9.24078
G1 X96.504 Y186.06 E9.27817
G1 X95.465 Y185.632 E9.31555
G1 X94.459 Y185.13 E9.35294
G1 X93.491 Y184.558 E9.39034
G1 X92.567 Y183.919 E9.4277
G1 X91.69 Y183.216 E9.46509
G1 X90.865 Y182.452 E9.50248
G1 X90.097 Y181.631 E9.53988
G1 X89.389 Y180.758 E9.57726
G1 X88.745 Y179.837 E9.61464
G1 X88.168 Y178.872 E9.65203
G1 X87.661 Y177.869 E9.68941
G1 X87.227 Y176.832 E9.7268
G1 X86.867 Y175.767 E9.76419
G1 X86.585 Y174.679 E9.80158
G1 X86.38 Y173.573 E9.83899
G1 X86.254 Y172.456 E9.87638
G1 X86.208 Y171.25 E9.91652
G1 X86.208 Y128.75 E11.33007
G1 X86.248 Y127.627 E11.36745
G1 X86.368 Y126.509 E11.40485
G1 F2700 E6.40485
G1 F300 Z0.4
G0 F6000 X86.608 Y128.75 Z0.4
G1 F300 Z0.2
G1 F2700 E11.40485
G1 F900 X86.648 Y127.641 E11.44176
G1 X86.768 Y126.538 E11.47866
G1 X86.967 Y125.446 E11.51558
G1 X87.244 Y124.371 E11.5525
G1 X87.597 Y123.319 E11.58941
G1 X88.026 Y122.296 E11.6263
G1 X88.527 Y121.305 E11.66324
G1 X89.098 Y120.354 E11.70013
G1 X89.736 Y119.446 E11.73704
G1 X90.438 Y118.586 E11.77396
G1 X91.2 Y117.78 E11.81085
G1 X92.018 Y117.03 E11.84777
G1 X92.888 Y116.341 E11.88468
G1 X93.806 Y115.716 E11.92162
G1 X94.766 Y115.159 E11.95853
G1 X95.763 Y114.673 E11.99542
G1 X96.793 Y114.26 E12.03233
G1 X97.85 Y113.922 E12.06924
G1 X98.929 Y113.661 E12.10616
G1 X100.024 Y113.478 E12.14309
G1 X101.129 Y113.375 E12.18
G1 X102.008 Y113.35 E12.20925
G1 X134.008 Y113.35 E13.27357
G1 X135.117 Y113.39 E13.31048
G1 X136.22 Y113.51 E13.34738
G1 X137.312 Y113.709 E13.3843
G1 X138.387 Y113.986 E13.42122
G1 X139.439 Y114.339 E13.45813
G1 X140.462 Y114.768 E13.49503
G1 X141.375 Y115.229 E13.52904
G1 X141.496 Y115.159 E13.53369
G1 X142.494 Y114.673 E13.57061
G1 X143.524 Y114.26 E13.60752
G1 X144.581 Y113.922 E13.64443
G1 X145.66 Y113.661 E13.68136
G1 X146.754 Y113.478 E13.71825
G1 X147.859 Y113.375 E13.75516
G1 X148.738 Y113.35 E13.78441
G1 X180.736 Y113.35 E14.84866
G1 X181.845 Y113.39 E14.88557
G1 X182.948 Y113.51 E14.92248
G1 X184.04 Y113.709 E14.95939
G1 X185.115 Y113.986 E14.99632
G1 X186.167 Y114.339 E15.03322
G1 X187.19 Y114.768 E15.07012
G1 X188.181 Y115.269 E15.10705
G1 X189.132 Y115.84 E15.14395
G1 X190.04 Y116.478 E15.18086
G1 X190.9 Y117.18 E15.21778
G1 X191.706 Y117.942 E15.25467
G1 X192.456 Y118.76 E15.29158
G1 X193.145 Y119.63 E15.3285
G1 X193.77 Y120.548 E15.36543
G1 X194.327 Y121.508 E15.40235
G1 X194.813 Y122.505 E15.43924
G1 X195.226 Y123.535 E15.47615
G1 X195.564 Y124.592 E15.51306
G1 X195.825 Y125.671 E15.54998
G1 X196.008 Y126.766 E15.5869
G1 X196.111 Y127.871 E15.62382
G1 X196.136 Y128.752 E15.65313
G1 X196.131 Y171.252 E17.06669
G1 X196.091 Y172.361 E17.1036
G1 X195.971 Y173.464 E17.1405
G1 X195.772 Y174.556 E17.17742
G1 X195.495 Y175.631 E17.21434
G1 X195.141 Y176.682 E17.25122
G1 X194.712 Y177.706 E17.28815
G1 X194.211 Y178.696 E17.32505
G1 X193.64 Y179.648 E17.36198
G1 X193.002 Y180.555 E17.39886
G1 X192.3 Y181.415 E17.43578
G1 X191.538 Y182.222 E17.4727
G1 X190.719 Y182.972 E17.50964
G1 X189.849 Y183.66 E17.54653
G1 X188.932 Y184.285 E17.58344
G1 X187.972 Y184.842 E17.62035
G1 X186.974 Y185.328 E17.65727
G1 X185.944 Y185.741 E17.69418
G1 X184.887 Y186.079 E17.73109
G1 X183.808 Y186.339 E17.76801
G1 X182.714 Y186.522 E17.8049
G1 X181.609 Y186.625 E17.84181
G1 X180.731 Y186.65 E17.87102
G1 X148.736 Y186.65 E18.93518
G1 X147.627 Y186.61 E18.97209
G1 X146.524 Y186.49 E19.00899
G1 X145.432 Y186.291 E19.04591
G1 X144.357 Y186.014 E19.08283
G1 X143.305 Y185.661 E19.11974
G1 X142.282 Y185.232 E19.15664
G1 X141.37 Y184.771 E19.19062
G1 X141.25 Y184.841 E19.19525
G1 X140.253 Y185.327 E19.23214
G1 X139.223 Y185.74 E19.26905
G1 X138.166 Y186.078 E19.30595
G1 X137.087 Y186.339 E19.34288
G1 X135.992 Y186.522 E19.3798
G1 X134.887 Y186.625 E19.41671
G1 X134.008 Y186.65 E19.44596
G1 X102.008 Y186.65 E20.51029
G1 X100.899 Y186.61 E20.5472
G1 X99.796 Y186.49 E20.5841
G1 X98.704 Y186.291 E20.62102
G1 X97.629 Y186.014 E20.65794
G1 X96.577 Y185.661 E20.69485
G1 X95.554 Y185.232 E20.73174
G1 X94.563 Y184.731 E20.76868
G1 X93.612 Y184.16 E20.80557
G1 X92.704 Y183.522 E20.84248
G1 X91.844 Y182.82 E20.8794
G1 X91.038 Y182.058 E20.91629
G1 X90.288 Y181.24 E20.95321
G1 X89.599 Y180.37 E20.99012
G1 X88.974 Y179.452 E21.02705
G1 X88.417 Y178.492 E21.06397
G1 X87.931 Y177.495 E21.10086
G1 X87.518 Y176.465 E21.13777
G1 X87.18 Y175.408 E21.17468
G1 X86.919 Y174.329 E21.2116
G1 X86.736 Y173.234 E21.24853
G1 X86.633 Y172.129 E21.28544
G1 X86.608 Y171.25 E21.31469
G1 X86.608 Y128.75 E22.72824
G0 F6000 X87.008 Y128.75
G1 F900 X87.048 Y127.655 E22.76469
G1 X87.168 Y126.567 E22.80109
G1 X87.367 Y125.49 E22.83752
G1 X87.644 Y124.43 E22.87396
G1 X87.997 Y123.393 E22.91039
G1 X88.425 Y122.385 E22.94682
G1 X88.926 Y121.411 E22.98325
G1 X89.496 Y120.476 E23.01967
G1 X90.133 Y119.585 E23.0561
G1 X90.834 Y118.743 E23.09254
G1 X91.594 Y117.954 E23.12897
G1 X92.409 Y117.223 E23.16539
G1 X93.276 Y116.554 E23.20181
G1 X94.189 Y115.949 E23.23824
G1 X95.144 Y115.413 E23.27466
G1 X96.136 Y114.947 E23.31112
G1 X97.158 Y114.556 E23.34751
G1 X98.207 Y114.24 E23.38395
G1 X99.276 Y114.001 E23.42038
G1 X100.36 Y113.841 E23.45683
G1 X101.452 Y113.76 E23.49325
G1 X102.008 Y113.75 E23.51174
G1 X134.008 Y113.75 E24.57607
G1 X135.103 Y113.79 E24.61251
G1 X136.191 Y113.91 E24.64892
G1 X137.268 Y114.109 E24.68534
G1 X138.328 Y114.386 E24.72178
G1 X139.365 Y114.739 E24.75822
G1 X140.373 Y115.167 E24.79464
G1 X141.382 Y115.689 E24.83243
G1 X141.875 Y115.412 E24.85123
G1 X142.866 Y114.947 E24.88764
G1 X143.889 Y114.555 E24.92408
G1 X144.938 Y114.239 E24.96052
G1 X146.007 Y114.001 E24.99695
G1 X147.09 Y113.841 E25.03336
G1 X148.183 Y113.76 E25.06981
G1 X148.738 Y113.75 E25.08827
G1 X180.736 Y113.75 E26.15253
G1 X181.831 Y113.79 E26.18897
G1 X182.919 Y113.91 E26.22538
G1 X183.996 Y114.109 E26.26181
G1 X185.056 Y114.386 E26.29825
G1 X186.093 Y114.739 E26.33468
G1 X187.101 Y115.167 E26.37111
G1 X188.075 Y115.668 E26.40754
G1 X189.01 Y116.238 E26.44396
G1 X189.901 Y116.875 E26.48039
G1 X190.743 Y117.576 E26.51683
G1 X191.532 Y118.336 E26.55326
G1 X192.263 Y119.151 E26.58968
G1 X192.932 Y120.018 E26.6261
G1 X193.537 Y120.931 E26.66253
G1 X194.073 Y121.886 E26.69895
G1 X194.539 Y122.878 E26.73541
G1 X194.93 Y123.9 E26.7718
G1 X195.246 Y124.949 E26.80824
G1 X195.485 Y126.018 E26.84467
G1 X195.645 Y127.102 E26.88112
G1 X195.726 Y128.194 E26.91754
G1 X195.736 Y128.752 E26.9361
G1 X195.731 Y171.252 E28.34965
G1 X195.691 Y172.346 E28.38606
G1 X195.571 Y173.435 E28.4225
G1 X195.372 Y174.512 E28.45893
G1 X195.095 Y175.572 E28.49537
G1 X194.741 Y176.608 E28.53178
G1 X194.313 Y177.616 E28.56821
G1 X193.812 Y178.59 E28.60464
G1 X193.242 Y179.525 E28.64106
G1 X192.605 Y180.416 E28.67749
G1 X191.904 Y181.258 E28.71393
G1 X191.144 Y182.047 E28.75036
G1 X190.328 Y182.778 E28.7868
G1 X189.462 Y183.447 E28.8232
G1 X188.548 Y184.052 E28.85966
G1 X187.593 Y184.588 E28.89608
G1 X186.602 Y185.053 E28.93249
G1 X185.579 Y185.445 E28.96893
G1 X184.53 Y185.761 E29.00537
G1 X183.461 Y185.999 E29.04179
G1 X182.378 Y186.159 E29.0782
G1 X181.285 Y186.24 E29.11466
G1 X180.731 Y186.25 E29.13308
G1 X148.736 Y186.25 E30.19724
G1 X147.641 Y186.21 E30.23369
G1 X146.553 Y186.09 E30.27009
G1 X145.476 Y185.891 E30.30652
G1 X144.416 Y185.614 E30.34296
G1 X143.379 Y185.261 E30.3794
G1 X142.371 Y184.833 E30.41582
G1 X141.363 Y184.311 E30.45357
G1 X140.872 Y184.587 E30.47231
G1 X139.88 Y185.053 E30.50876
G1 X138.858 Y185.444 E30.54516
G1 X137.809 Y185.76 E30.58159
G1 X136.74 Y185.999 E30.61803
G1 X135.656 Y186.159 E30.65447
G1 X134.564 Y186.24 E30.69089
G1 X134.008 Y186.25 E30.70939
G1 X102.008 Y186.25 E31.77371
G1 X100.913 Y186.21 E31.81015
G1 X99.825 Y186.09 E31.84656
G1 X98.748 Y185.891 E31.88299
G1 X97.688 Y185.614 E31.91943
G1 X96.651 Y185.261 E31.95586
G1 X95.643 Y184.833 E31.99229
G1 X94.669 Y184.332 E32.02872
G1 X93.734 Y183.762 E32.06514
G1 X92.843 Y183.125 E32.10157
G1 X92.001 Y182.424 E32.13801
G1 X91.212 Y181.664 E32.17444
G1 X90.481 Y180.849 E32.21086
G1 X89.812 Y179.982 E32.24728
G1 X89.207 Y179.069 E32.28371
G1 X88.671 Y178.114 E32.32013
G1 X88.205 Y177.122 E32.35659
G1 X87.814 Y176.1 E32.39298
G1 X87.498 Y175.051 E32.42942
G1 X87.259 Y173.982 E32.46585
G1 X87.099 Y172.898 E32.5023
G1 X87.018 Y171.806 E32.53872
G1 X87.008 Y171.25 E32.55721
G1 X87.008 Y128.75 E33.97077
G0 F6000 X87.408 Y128.75
G1 F900 X87.448 Y127.67 E34.00671
G1 X87.568 Y126.596 E34.04266
G1 X87.767 Y125.534 E34.07859
G1 X88.043 Y124.49 E34.11451
G1 X88.397 Y123.469 E34.15045
G1 X88.825 Y122.476 E34.18642
G1 X89.325 Y121.518 E34.22236
G1 X89.894 Y120.6 E34.25828
G1 X90.53 Y119.727 E34.29421
G1 X91.229 Y118.902 E34.33017
G1 X91.987 Y118.132 E34.36611
G1 X92.8 Y117.42 E34.40205
G1 X93.663 Y116.77 E34.43799
G1 X94.572 Y116.186 E34.47392
G1 X95.521 Y115.67 E34.50985
G1 X96.506 Y115.226 E34.54578
G1 X97.522 Y114.856 E34.58175
G1 X98.562 Y114.563 E34.61769
G1 X99.62 Y114.347 E34.6536
G1 X100.692 Y114.209 E34.68955
G1 X102.008 Y114.15 E34.73336
G1 X134.008 Y114.15 E35.79769
G1 X135.088 Y114.19 E35.83363
G1 X136.162 Y114.31 E35.86958
G1 X137.224 Y114.509 E35.90551
G1 X138.268 Y114.785 E35.94143
G1 X139.289 Y115.139 E35.97737
G1 X140.282 Y115.567 E36.01334
G1 X141.24 Y116.067 E36.04928
G1 X141.37 Y116.148 E36.05437
G1 X142.252 Y115.67 E36.08774
G1 X143.237 Y115.226 E36.12368
G1 X144.252 Y114.856 E36.15961
G1 X145.292 Y114.562 E36.19555
G1 X146.351 Y114.346 E36.2315
G1 X147.423 Y114.209 E36.26745
G1 X148.738 Y114.15 E36.31123
G1 X180.736 Y114.15 E37.37549
G1 X181.816 Y114.19 E37.41143
G1 X182.89 Y114.31 E37.44737
G1 X183.952 Y114.509 E37.48331
G1 X184.996 Y114.785 E37.51923
G1 X186.017 Y115.139 E37.55517
G1 X187.01 Y115.567 E37.59113
G1 X187.968 Y116.067 E37.62708
G1 X188.886 Y116.636 E37.663
G1 X189.759 Y117.272 E37.69892
G1 X190.584 Y117.971 E37.73489
G1 X191.354 Y118.729 E37.77083
G1 X192.066 Y119.542 E37.80677
G1 X192.716 Y120.405 E37.8427
G1 X193.3 Y121.314 E37.87864
G1 X193.816 Y122.263 E37.91457
G1 X194.26 Y123.248 E37.9505
G1 X194.63 Y124.264 E37.98647
G1 X194.923 Y125.304 E38.0224
G1 X195.139 Y126.362 E38.05832
G1 X195.277 Y127.434 E38.09427
G1 X195.336 Y128.752 E38.13815
G1 X195.331 Y171.252 E39.5517
G1 X195.291 Y172.332 E39.58765
G1 X195.171 Y173.405 E39.62356
G1 X194.972 Y174.467 E39.6595
G1 X194.695 Y175.512 E39.69545
G1 X194.342 Y176.533 E39.73139
G1 X193.914 Y177.525 E39.76732
G1 X193.413 Y178.483 E39.80328
G1 X192.844 Y179.401 E39.8392
G1 X192.208 Y180.275 E39.87515
G1 X191.509 Y181.099 E39.91109
G1 X190.751 Y181.869 E39.94703
G1 X189.938 Y182.581 E39.98297
G1 X189.075 Y183.231 E40.01891
G1 X188.166 Y183.815 E40.05484
G1 X187.216 Y184.331 E40.0908
G1 X186.231 Y184.774 E40.12672
G1 X185.216 Y185.144 E40.16265
G1 X184.176 Y185.438 E40.1986
G1 X183.117 Y185.654 E40.23455
G1 X182.045 Y185.791 E40.27049
G1 X180.731 Y185.85 E40.31424
G1 X148.736 Y185.85 E41.3784
G1 X147.656 Y185.81 E41.41434
G1 X146.582 Y185.69 E41.45029
G1 X145.52 Y185.491 E41.48622
G1 X144.476 Y185.215 E41.52214
G1 X143.455 Y184.861 E41.55808
G1 X142.462 Y184.433 E41.59405
G1 X141.504 Y183.933 E41.62999
G1 X141.374 Y183.852 E41.63508
G1 X140.495 Y184.33 E41.66836
G1 X139.51 Y184.774 E41.7043
G1 X138.494 Y185.144 E41.74026
G1 X137.454 Y185.437 E41.7762
G1 X136.396 Y185.653 E41.81211
G1 X135.324 Y185.791 E41.84806
G1 X134.008 Y185.85 E41.89188
G1 X102.008 Y185.85 E42.9562
G1 X100.928 Y185.81 E42.99215
G1 X99.854 Y185.69 E43.02809
G1 X98.792 Y185.491 E43.06403
G1 X97.748 Y185.215 E43.09994
G1 X96.727 Y184.861 E43.13588
G1 X95.734 Y184.433 E43.17185
G1 X94.776 Y183.933 E43.20779
G1 X93.858 Y183.364 E43.24371
G1 X92.985 Y182.728 E43.27964
G1 X92.16 Y182.029 E43.3156
G1 X91.39 Y181.271 E43.35154
G1 X90.678 Y180.458 E43.38748
G1 X90.028 Y179.595 E43.42342
G1 X89.444 Y178.686 E43.45935
G1 X88.928 Y177.737 E43.49528
G1 X88.484 Y176.752 E43.53122
G1 X88.114 Y175.736 E43.56718
G1 X87.821 Y174.696 E43.60312
G1 X87.605 Y173.638 E43.63903
G1 X87.467 Y172.566 E43.67498
G1 X87.408 Y171.25 E43.7188
G1 X87.408 Y128.75 E45.13235
G0 F6000 X87.808 Y128.75
G1 F900 X87.848 Y127.685 E45.1678
G1 X87.968 Y126.626 E45.20325
