;FLAVOR:Marlin
;TIME:2955
;Filament used: 1.46523m
;Layer height: 0.2
;MINX:127.548
;MINY:128.102
;MINZ:0.2
;MAXX:172.185
;MAXY:172.081
;MAXZ:32.2
;Generated with Cura_SteamEngine 5.0.0
M140 S95
M105
M190 S95
M104 S230
M105
M109 S230
M82 ;absolute extrusion mode
; LONGER Start G-code
G21 ; metric values
G90 ; absolute positioning
M82 ; set extruder to absolute mode
M107 ; start with the fan off
G92 E0 ; Reset Extruder
G28 ; Home all axes
G1 Z2.0 F3000 ; Move Z Axis up little to prevent scratching of Heat Bed
G1 X0.1 Y20 Z0.3 F5000.0 ; Move to start position
G1 X0.1 Y200.0 Z0.3 F1500.0 E15 ; Draw the first line
G1 X0.4 Y200.0 Z0.3 F5000.0 ; Move to side a little
G1 X0.4 Y20 Z0.3 F1500.0 E30 ; Draw the second line
G92 E0 ; Reset Extruder
G1 Z2.0 F3000 ; Move Z Axis up little to prevent scratching of Heat Bed
G1 X5 Y20 Z0.3 F5000.0 ; Move over to prevent blob squish

G92 E0
G92 E0
G1 F2700 E-5
;LAYER_COUNT:160
;LAYER:0
M107
G1 F300 Z0.4
G0 F6000 X132.384 Y136.021 Z0.4
G1 F300 Z0.4
G0 F6000 X128.765 Y142.615
;TYPE:SKIRT
G1 F300 Z0.2
G1 F2700 E0
G1 F900 X129.028 Y141.87 E0.02628
G1 X129.56 Y140.813 E0.06564
G1 X130.464 Y139.312 E0.12391
G1 X130.706 Y138.673 E0.14664
G1 X131.023 Y137.949 E0.17293
G1 X131.411 Y137.262 E0.19917
G1 X131.866 Y136.616 E0.22545
G1 X132.384 Y136.021 E0.25169
G1 X132.96 Y135.48 E0.27797
G1 X133.355 Y135.167 E0.29473
G1 X135.736 Y133.401 E0.39333
G1 X136.394 Y132.963 E0.41962
G1 X137.092 Y132.594 E0.44588
G1 X137.587 Y132.394 E0.46364
G1 X137.981 Y131.963 E0.48306
G1 X138.704 Y131.332 E0.51498
G1 X140.376 Y130.044 E0.58518
G1 X141.025 Y129.594 E0.61144
G1 X141.716 Y129.213 E0.63769
G1 X142.443 Y128.903 E0.66398
G1 X143.197 Y128.668 E0.69024
G1 X144.135 Y128.487 E0.72202
G1 X145.642 Y128.292 E0.77256
G1 X146.429 Y128.231 E0.79881
G1 X147.219 Y128.249 E0.82509
G1 X148.002 Y128.347 E0.85134
G1 X148.772 Y128.524 E0.87762
G1 X149.52 Y128.778 E0.90389
G1 X149.567 Y128.8 E0.90562
G1 X151.163 Y128.42 E0.96019
G1 X152.158 Y128.25 E0.99376
G1 X153.173 Y128.144 E1.0277
G1 X153.961 Y128.102 E1.05395
G1 X154.75 Y128.14 E1.08022
G1 X155.531 Y128.257 E1.10649
G1 X156.296 Y128.453 E1.13275
G1 X157.037 Y128.725 E1.15901
G1 X157.747 Y129.071 E1.18528
G1 X158.47 Y129.53 E1.21376
G1 X159.063 Y129.592 E1.23359
G1 X159.836 Y129.752 E1.25984
G1 X160.589 Y129.991 E1.28612
G1 X161.314 Y130.303 E1.31237
G1 X162.004 Y130.688 E1.33865
G1 X162.651 Y131.141 E1.36492
G1 X163.163 Y131.576 E1.38727
G1 X165.31 Y133.564 E1.48459
G1 X165.862 Y134.129 E1.51086
G1 X166.314 Y134.692 E1.53487
G1 X166.68 Y135.195 E1.55556
G1 X167.387 Y135.608 E1.5828
G1 X168.024 Y136.075 E1.60907
G1 X168.61 Y136.604 E1.63533
G1 X169.141 Y137.189 E1.6616
G1 X169.609 Y137.825 E1.68787
G1 X170.01 Y138.505 E1.71412
G1 X170.341 Y139.222 E1.74039
G1 X170.518 Y139.708 E1.75759
G1 X170.756 Y140.438 E1.78313
G1 X170.962 Y141.2 E1.80938
G1 X171.091 Y141.98 E1.83568
G1 X171.14 Y142.768 E1.86194
G1 X171.108 Y143.557 E1.8882
G1 X171.1 Y143.612 E1.89005
G1 X171.232 Y143.862 E1.89945
G1 X171.528 Y144.594 E1.92571
G1 X171.748 Y145.352 E1.95197
G1 X171.906 Y146.252 E1.98236
G1 X172.134 Y148.224 E2.04838
G1 X172.185 Y149.012 E2.07465
G1 X172.156 Y149.801 E2.10091
G1 X172.038 Y150.631 E2.12879
G1 X171.715 Y152.267 E2.18426
G1 X171.523 Y153.033 E2.21052
G1 X171.379 Y153.431 E2.2246
G1 X171.402 Y153.794 E2.2367
G1 X171.37 Y154.583 E2.26296
G1 X171.26 Y155.365 E2.28923
G1 X171.071 Y156.131 E2.31547
G1 X170.726 Y157.057 E2.34833
G1 X170.336 Y157.932 E2.3802
G1 X170.212 Y158.177 E2.38933
G1 X170.052 Y158.868 E2.41292
G1 X169.797 Y159.615 E2.43917
G1 X169.468 Y160.333 E2.46544
G1 X169.068 Y161.014 E2.49171
G1 X168.601 Y161.651 E2.51798
G1 X168.072 Y162.237 E2.54424
G1 X167.486 Y162.767 E2.57052
G1 X167.144 Y163.031 E2.58489
G1 X166.638 Y163.4 E2.60572
G1 X166.381 Y164.194 E2.63347
G1 X166.099 Y164.931 E2.65972
G1 X165.743 Y165.637 E2.68602
G1 X165.319 Y166.302 E2.71225
G1 X164.829 Y166.922 E2.73853
G1 X164.279 Y167.488 E2.76478
G1 X163.674 Y167.996 E2.79106
G1 X163.021 Y168.441 E2.81734
G1 X162.221 Y168.866 E2.84747
G1 X160.972 Y169.434 E2.89311
G1 X160.463 Y169.828 E2.91451
G1 X159.792 Y170.246 E2.94081
G1 X159.083 Y170.593 E2.96706
G1 X158.343 Y170.867 E2.99331
G1 X157.578 Y171.065 E3.01959
G1 X156.603 Y171.201 E3.05233
G1 X154.793 Y171.339 E3.11271
G1 X154.004 Y171.36 E3.13896
G1 X153.216 Y171.3 E3.16524
G1 X153.038 Y171.264 E3.17128
G1 X152.824 Y171.375 E3.1793
G1 X152.089 Y171.665 E3.20558
G1 X151.329 Y171.878 E3.23184
G1 X150.551 Y172.014 E3.2581
G1 X149.602 Y172.072 E3.28973
G1 X148.833 Y172.072 E3.3153
G1 X148.044 Y172.032 E3.34158
G1 X147.438 Y171.94 E3.36197
G1 X147.322 Y171.966 E3.36592
G1 X146.538 Y172.061 E3.39219
G1 X145.986 Y172.081 E3.41056
G1 X145.218 Y172.081 E3.4361
G1 X144.429 Y172.041 E3.46238
G1 X143.649 Y171.922 E3.48862
G1 X142.884 Y171.724 E3.5149
G1 X142.144 Y171.45 E3.54115
G1 X141.435 Y171.102 E3.56742
G1 X140.764 Y170.684 E3.59371
G1 X140.14 Y170.201 E3.61996
G1 X139.637 Y169.73 E3.64288
G1 X139.008 Y169.086 E3.67282
G1 X138.549 Y168.908 E3.68919
G1 X137.845 Y168.549 E3.71548
G1 X137.131 Y168.085 E3.7438
G1 X135.27 Y166.725 E3.82046
G1 X134.657 Y166.227 E3.84673
G1 X134.097 Y165.67 E3.873
G1 X133.596 Y165.059 E3.89928
G1 X133.16 Y164.401 E3.92553
G1 X132.845 Y163.812 E3.94775
G1 X132.266 Y162.611 E3.99209
G1 X132.135 Y162.521 E3.99738
G1 X131.506 Y162.043 E4.02366
G1 X130.929 Y161.504 E4.04992
G1 X130.41 Y160.909 E4.07618
G1 X129.953 Y160.265 E4.10244
G1 X129.563 Y159.578 E4.12872
G1 X129.266 Y158.908 E4.15309
G1 X128.707 Y157.471 E4.20438
G1 X128.458 Y156.721 E4.23066
G1 X128.286 Y155.95 E4.25694
G1 X128.187 Y155.061 E4.28669
G1 X128.083 Y153.128 E4.35107
G1 X127.701 Y151.227 E4.41556
G1 X127.585 Y150.446 E4.44182
G1 X127.548 Y149.657 E4.4681
G1 X127.563 Y149.211 E4.48294
G1 X127.706 Y146.882 E4.56055
G1 X127.794 Y146.097 E4.58682
G1 X128.015 Y145.136 E4.61962
G1 X128.765 Y142.615 E4.7071
G1 F2700 E-0.2929
G1 F300 Z0.4
G0 F6000 X128.504 Y146.931 Z0.4
G1 F300 Z0.2
G1 F2700 E4.7071
G1 F900 X128.59 Y146.188 E4.73197
G1 X128.782 Y145.364 E4.76012
G1 X129.532 Y142.843 E4.8476
G1 X129.783 Y142.138 E4.87249
G1 X130.245 Y141.226 E4.90649
G1 X131.189 Y139.659 E4.96733
G1 X131.455 Y138.956 E4.99233
G1 X131.756 Y138.271 E5.01722
G1 X132.129 Y137.623 E5.04209
G1 X132.569 Y137.018 E5.06697
G1 X133.071 Y136.463 E5.09186
G1 X133.832 Y135.81 E5.12521
G1 X136.213 Y134.044 E5.22381
G1 X136.837 Y133.631 E5.2487
G1 X137.501 Y133.287 E5.27357
G1 X138.064 Y133.068 E5.29366
G1 X138.167 Y132.935 E5.29926
G1 X138.686 Y132.396 E5.32414
G1 X139.192 Y131.966 E5.34623
G1 X140.864 Y130.678 E5.41643
G1 X141.48 Y130.253 E5.44132
G1 X142.138 Y129.897 E5.4662
G1 X142.83 Y129.614 E5.49107
G1 X143.549 Y129.405 E5.51597
G1 X144.238 Y129.281 E5.53926
G1 X145.745 Y129.086 E5.5898
G1 X146.491 Y129.03 E5.61468
G1 X147.238 Y129.053 E5.63954
G1 X147.979 Y129.157 E5.66442
G1 X148.705 Y129.339 E5.68932
G1 X149.407 Y129.597 E5.71419
G1 X149.495 Y129.639 E5.71744
G1 X151.348 Y129.198 E5.78079
G1 X152.241 Y129.046 E5.81092
G1 X153.256 Y128.94 E5.84486
G1 X154.003 Y128.902 E5.86974
G1 X154.75 Y128.944 E5.89462
G1 X155.488 Y129.066 E5.9195
G1 X156.209 Y129.265 E5.94438
G1 X156.904 Y129.541 E5.96925
G1 X157.567 Y129.889 E5.99416
G1 X158.19 Y130.307 E6.01911
G1 X158.979 Y130.388 E6.04549
G1 X159.71 Y130.547 E6.07037
G1 X160.42 Y130.782 E6.09525
G1 X161.101 Y131.092 E6.12013
G1 X161.745 Y131.473 E6.14502
G1 X162.62 Y132.163 E6.18208
G1 X164.767 Y134.151 E6.2794
G1 X165.288 Y134.688 E6.30429
G1 X165.668 Y135.164 E6.32455
G1 X166.145 Y135.819 E6.3515
G1 X166.336 Y135.918 E6.35865
G1 X166.98 Y136.298 E6.38352
G1 X167.58 Y136.746 E6.40843
G1 X168.128 Y137.254 E6.43328
G1 X168.62 Y137.818 E6.45817
G1 X169.048 Y138.432 E6.48307
G1 X169.408 Y139.087 E6.50793
G1 X169.757 Y139.956 E6.53907
G1 X169.995 Y140.686 E6.56461
G1 X170.189 Y141.409 E6.58951
G1 X170.304 Y142.148 E6.61438
G1 X170.34 Y142.895 E6.63926
G1 X170.296 Y143.642 E6.66415
G1 X170.277 Y143.753 E6.66789
G1 X170.587 Y144.379 E6.69113
G1 X170.846 Y145.081 E6.71601
G1 X171.028 Y145.806 E6.74087
G1 X171.112 Y146.344 E6.75898
G1 X171.34 Y148.316 E6.82501
G1 X171.386 Y149.063 E6.8499
G1 X171.352 Y149.81 E6.87477
G1 X171.253 Y150.476 E6.89717
G1 X170.93 Y152.112 E6.95263
G1 X170.747 Y152.837 E6.9775
G1 X170.572 Y153.306 E6.99415
G1 X170.602 Y153.921 E7.01463
G1 X170.558 Y154.668 E7.03952
G1 X170.434 Y155.406 E7.06441
G1 X170.233 Y156.126 E7.08927
G1 X169.996 Y156.732 E7.11092
G1 X169.606 Y157.607 E7.14278
G1 X169.446 Y157.919 E7.15444
G1 X169.436 Y157.997 E7.15706
G1 X169.261 Y158.724 E7.18193
G1 X169.009 Y159.429 E7.20683
G1 X168.684 Y160.102 E7.23168
G1 X168.289 Y160.737 E7.25656
G1 X167.828 Y161.327 E7.28146
G1 X167.307 Y161.863 E7.30632
G1 X166.673 Y162.384 E7.33362
G1 X166.051 Y162.837 E7.35921
G1 X165.935 Y162.912 E7.3638
G1 X165.858 Y163.215 E7.3742
G1 X165.62 Y163.946 E7.39977
G1 X165.351 Y164.644 E7.42465
G1 X165.009 Y165.309 E7.44952
G1 X164.597 Y165.934 E7.47442
G1 X164.122 Y166.512 E7.4993
G1 X163.587 Y167.035 E7.52419
G1 X163 Y167.498 E7.54905
G1 X162.367 Y167.896 E7.57392
G1 X161.887 Y168.139 E7.59182
G1 X160.736 Y168.668 E7.63395
G1 X160.567 Y168.738 E7.64003
G1 X159.974 Y169.194 E7.66491
G1 X159.335 Y169.584 E7.68981
G1 X158.659 Y169.903 E7.71467
G1 X157.952 Y170.149 E7.73957
G1 X157.224 Y170.318 E7.76443
G1 X156.542 Y170.404 E7.78729
G1 X154.732 Y170.542 E7.84767
G1 X153.984 Y170.559 E7.87255
G1 X153.239 Y170.496 E7.89742
G1 X152.916 Y170.429 E7.90839
G1 X152.422 Y170.679 E7.92681
G1 X151.722 Y170.943 E7.95169
G1 X150.998 Y171.131 E7.97657
G1 X150.258 Y171.241 E8.00145
G1 X149.602 Y171.272 E8.02329
G1 X148.833 Y171.272 E8.04887
G1 X148.086 Y171.232 E8.07375
G1 X147.414 Y171.124 E8.09639
G1 X147.029 Y171.203 E8.10946
G1 X145.986 Y171.281 E8.14425
G1 X145.218 Y171.281 E8.16979
G1 X144.471 Y171.241 E8.19467
G1 X143.733 Y171.122 E8.21954
G1 X143.011 Y170.924 E8.24444
G1 X142.315 Y170.651 E8.2693
G1 X141.652 Y170.304 E8.29419
G1 X141.029 Y169.889 E8.31909
G1 X140.21 Y169.171 E8.35532
G1 X139.464 Y168.406 E8.39085
G1 X138.732 Y168.111 E8.4171
G1 X138.075 Y167.755 E8.44196
G1 X137.603 Y167.439 E8.46085
G1 X135.742 Y166.079 E8.53751
G1 X135.162 Y165.606 E8.56241
G1 X134.637 Y165.073 E8.58729
G1 X134.171 Y164.488 E8.61217
G1 X133.77 Y163.857 E8.63703
G1 X133.566 Y163.465 E8.65173
G1 X132.901 Y162.075 E8.70298
G1 X132.586 Y161.86 E8.71566
G1 X131.992 Y161.406 E8.74053
G1 X131.45 Y160.89 E8.76542
G1 X130.965 Y160.32 E8.79031
G1 X130.545 Y159.702 E8.81517
G1 X130.192 Y159.042 E8.84006
G1 X130.011 Y158.618 E8.85539
G1 X129.452 Y157.181 E8.90668
G1 X129.219 Y156.47 E8.93156
G1 X129.062 Y155.739 E8.95643
G1 X128.986 Y155.018 E8.98054
G1 X128.879 Y153.028 E9.04683
G1 X128.485 Y151.069 E9.11329
G1 X128.377 Y150.329 E9.13816
G1 X128.361 Y149.26 E9.17372
G1 X128.504 Y146.931 E9.25133
G1 F2700 E4.25133
G1 F300 Z0.4
G0 F6000 X127.962 Y149.235 Z0.4
G1 F300 Z0.2
G1 F2700 E9.25133
G1 F900 X128.105 Y146.906 E9.32894
G1 X128.192 Y146.142 E9.35451
G1 X128.398 Y145.25 E9.38496
G1 X129.148 Y142.729 E9.47244
G1 X129.406 Y142.004 E9.49804
G1 X129.903 Y141.02 E9.5347
G1 X130.823 Y139.493 E9.594
G1 X131.08 Y138.814 E9.61814
G1 X131.389 Y138.11 E9.64372
G1 X131.77 Y137.442 E9.66929
G1 X132.218 Y136.816 E9.6949
G1 X132.728 Y136.241 E9.72046
G1 X133.594 Y135.488 E9.75863
G1 X135.975 Y133.722 E9.85723
G1 X136.615 Y133.297 E9.88278
G1 X137.297 Y132.94 E9.90838
G1 X137.811 Y132.736 E9.92678
G1 X138.334 Y132.178 E9.95221
G1 X138.948 Y131.649 E9.97917
G1 X140.62 Y130.361 E10.04937
G1 X141.253 Y129.924 E10.07495
G1 X141.928 Y129.555 E10.10054
G1 X142.637 Y129.258 E10.1261
G1 X143.374 Y129.036 E10.1517
G1 X144.186 Y128.884 E10.17918
G1 X145.693 Y128.689 E10.22972
G1 X146.46 Y128.63 E10.25531
G1 X147.229 Y128.651 E10.28089
G1 X147.992 Y128.752 E10.30649
G1 X148.74 Y128.931 E10.33207
G1 X149.465 Y129.187 E10.35765
G1 X149.533 Y129.219 E10.36014
G1 X151.255 Y128.809 E10.41902
G1 X152.199 Y128.648 E10.45087
G1 X153.214 Y128.542 E10.48481
G1 X153.982 Y128.502 E10.51039
G1 X154.751 Y128.542 E10.536
G1 X155.51 Y128.661 E10.56156
G1 X156.254 Y128.859 E10.58716
G1 X156.973 Y129.133 E10.61275
G1 X157.659 Y129.48 E10.63832
G1 X158.334 Y129.917 E10.66507
G1 X159.021 Y129.99 E10.68805
G1 X159.774 Y130.15 E10.71365
G1 X160.505 Y130.386 E10.7392
G1 X161.209 Y130.698 E10.76481
G1 X161.876 Y131.081 E10.79039
G1 X162.5 Y131.531 E10.81598
G1 X162.892 Y131.869 E10.8332
G1 X165.039 Y133.857 E10.93052
G1 X165.575 Y134.408 E10.95608
G1 X165.991 Y134.928 E10.97823
G1 X166.413 Y135.507 E11.00206
G1 X166.521 Y135.563 E11.00611
G1 X167.184 Y135.953 E11.03169
G1 X167.802 Y136.41 E11.05726
G1 X168.37 Y136.929 E11.08285
G1 X168.881 Y137.504 E11.10843
G1 X169.33 Y138.129 E11.13403
G1 X169.711 Y138.797 E11.15961
G1 X170.138 Y139.832 E11.19685
G1 X170.376 Y140.562 E11.22238
G1 X170.576 Y141.305 E11.24798
G1 X170.698 Y142.064 E11.27354
G1 X170.74 Y142.832 E11.29913
G1 X170.702 Y143.601 E11.32473
G1 X170.689 Y143.688 E11.32766
G1 X170.911 Y144.121 E11.34384
G1 X171.188 Y144.838 E11.36941
G1 X171.39 Y145.581 E11.39502
G1 X171.509 Y146.298 E11.41919
G1 X171.737 Y148.27 E11.48522
G1 X171.786 Y149.038 E11.51081
G1 X171.754 Y149.806 E11.53638
G1 X171.646 Y150.553 E11.56148
G1 X171.323 Y152.189 E11.61695
G1 X171.135 Y152.935 E11.64254
G1 X170.975 Y153.37 E11.65795
G1 X171.002 Y153.858 E11.67421
G1 X170.964 Y154.627 E11.69982
G1 X170.847 Y155.387 E11.72539
G1 X170.652 Y156.131 E11.75097
G1 X170.361 Y156.895 E11.77816
G1 X169.971 Y157.77 E11.81003
G1 X169.833 Y158.048 E11.82035
G1 X169.656 Y158.797 E11.84595
G1 X169.403 Y159.523 E11.87152
G1 X169.076 Y160.219 E11.89709
G1 X168.678 Y160.877 E11.92267
G1 X168.214 Y161.491 E11.94827
G1 X167.689 Y162.053 E11.97385
G1 X166.908 Y162.708 E12.00775
G1 X166.281 Y163.164 E12.03354
G1 X166.238 Y163.339 E12.03953
G1 X166 Y164.07 E12.0651
G1 X165.725 Y164.788 E12.09067
G1 X165.376 Y165.473 E12.11624
G1 X164.958 Y166.119 E12.14183
G1 X164.475 Y166.718 E12.16743
G1 X163.932 Y167.263 E12.19301
G1 X163.336 Y167.749 E12.21859
G1 X162.693 Y168.171 E12.24417
G1 X162.054 Y168.503 E12.26812
G1 X160.903 Y169.032 E12.31026
G1 X160.77 Y169.085 E12.31502
G1 X160.218 Y169.511 E12.33821
G1 X159.563 Y169.915 E12.36381
G1 X158.87 Y170.249 E12.38939
G1 X158.147 Y170.509 E12.41495
G1 X157.4 Y170.692 E12.44053
G1 X156.573 Y170.803 E12.46828
G1 X154.763 Y170.941 E12.52866
G1 X153.994 Y170.959 E12.55424
G1 X153.227 Y170.898 E12.57983
G1 X152.976 Y170.847 E12.58835
G1 X152.622 Y171.028 E12.60157
G1 X151.905 Y171.305 E12.62714
G1 X151.162 Y171.506 E12.65274
G1 X150.403 Y171.629 E12.67831
G1 X149.602 Y171.672 E12.70499
G1 X148.833 Y171.672 E12.73057
G1 X148.065 Y171.632 E12.75615
G1 X147.422 Y171.531 E12.7778
G1 X147.174 Y171.585 E12.78624
G1 X146.41 Y171.669 E12.8118
G1 X145.986 Y171.681 E12.82591
G1 X145.218 Y171.681 E12.85145
G1 X144.45 Y171.641 E12.87703
G1 X143.69 Y171.522 E12.90262
G1 X142.947 Y171.324 E12.92819
G1 X142.228 Y171.05 E12.95378
G1 X141.542 Y170.703 E12.97935
G1 X140.895 Y170.287 E13.00494
G1 X140.295 Y169.806 E13.03051
G1 X139.923 Y169.451 E13.04762
G1 X139.235 Y168.747 E13.08036
G1 X138.639 Y168.509 E13.1017
G1 X137.958 Y168.152 E13.12728
G1 X137.367 Y167.762 E13.15083
G1 X135.506 Y166.402 E13.22749
G1 X134.909 Y165.916 E13.25309
G1 X134.366 Y165.371 E13.27868
G1 X133.883 Y164.773 E13.30425
G1 X133.464 Y164.128 E13.32983
G1 X133.205 Y163.639 E13.34824
G1 X132.579 Y162.339 E13.39623
G1 X132.361 Y162.19 E13.40501
G1 X131.749 Y161.724 E13.43059
G1 X131.189 Y161.197 E13.45617
G1 X130.687 Y160.614 E13.48176
G1 X130.248 Y159.983 E13.50732
G1 X129.877 Y159.309 E13.53291
G1 X129.638 Y158.763 E13.55274
G1 X129.079 Y157.326 E13.60402
G1 X128.838 Y156.595 E13.62962
G1 X128.674 Y155.844 E13.65519
G1 X128.587 Y155.039 E13.68212
G1 X128.482 Y153.082 E13.7473
G1 X128.093 Y151.148 E13.81292
G1 X127.981 Y150.387 E13.8385
G1 X127.962 Y149.235 E13.87682
G0 F6000 X128.76 Y149.285
G1 F900 X128.903 Y146.956 E13.95443
G1 X128.988 Y146.234 E13.97861
G1 X129.165 Y145.478 E14.00443
G1 X129.915 Y142.957 E14.09191
G1 X130.16 Y142.273 E14.11608
G1 X130.588 Y141.433 E14.14744
