;FLAVOR:Marlin
;TIME:2793
;Filament used: 1.44901m
;Layer height: 0.2
;MINX:119.579
;MINY:119.579
;MINZ:0.2
;MAXX:180.421
;MAXY:180.421
;MAXZ:22
;Generated with Cura_SteamEngine 5.0.0
M140 S95
M105
M190 S95
M104 S240
M105
M109 S240
M82 ;absolute extrusion mode
; LONGER Start G-code
G21 ; metric values
G90 ; absolute positioning
M82 ; set extruder to absolute mode
M107 ; start with the fan off
G92 E0 ; Reset Extruder
G28 ; Home all axes
G1 Z2.0 F3000 ; Move Z Axis up little to prevent scratching of Heat Bed
G1 X0.1 Y20 Z0.3 F5000.0 ; Move to start position
G1 X0.1 Y200.0 Z0.3 F1500.0 E15 ; Draw the first line
G1 X0.4 Y200.0 Z0.3 F5000.0 ; Move to side a little
G1 X0.4 Y20 Z0.3 F1500.0 E30 ; Draw the second line
G92 E0 ; Reset Extruder
G1 Z2.0 F3000 ; Move Z Axis up little to prevent scratching of Heat Bed
G1 X5 Y20 Z0.3 F5000.0 ; Move over to prevent blob squish

G92 E0
G92 E0
G1 F2700 E-5
;LAYER_COUNT:110
;LAYER:0
M107
G1 F300 Z0.4
G0 F6000 X129.038 Y127.941 Z0.4
G1 F300 Z0.4
G0 F6000 X123.533 Y134.983
;TYPE:SKIRT
G1 F300 Z0.2
G1 F2700 E0
G1 F900 X124.27 Y133.752 E0.04772
G1 X125.137 Y132.453 E0.09966
G1 X125.994 Y131.298 E0.1475
G1 X126.974 Y130.105 E0.19885
G1 X127.938 Y129.041 E0.2466
G1 X129.038 Y127.941 E0.29834
G1 X130.103 Y126.976 E0.34614
G1 X131.295 Y125.997 E0.39745
G1 X132.451 Y125.139 E0.44533
G1 X133.752 Y124.27 E0.49737
G1 X134.983 Y123.533 E0.54509
G1 X136.374 Y122.792 E0.59751
G1 X137.707 Y122.165 E0.6465
G1 X139.119 Y121.582 E0.69731
G1 X140.438 Y121.111 E0.74389
G1 X141.909 Y120.665 E0.79502
G1 X143.301 Y120.316 E0.84275
G1 X144.826 Y120.013 E0.89446
G1 X146.249 Y119.802 E0.94231
G1 X147.785 Y119.65 E0.99365
G1 X149.219 Y119.579 E1.0414
G1 X150.781 Y119.579 E1.09335
G1 X152.215 Y119.65 E1.14111
G1 X153.751 Y119.802 E1.19244
G1 X155.174 Y120.013 E1.24029
G1 X156.727 Y120.323 E1.29296
G1 X158.148 Y120.682 E1.34171
G1 X159.6 Y121.124 E1.39219
G1 X160.925 Y121.598 E1.439
G1 X162.359 Y122.192 E1.49062
G1 X163.657 Y122.806 E1.53838
G1 X165.017 Y123.533 E1.58967
G1 X166.248 Y124.27 E1.63739
G1 X167.547 Y125.137 E1.68934
G1 X168.702 Y125.994 E1.73717
G1 X169.895 Y126.974 E1.78852
G1 X170.959 Y127.938 E1.83627
G1 X172.059 Y129.038 E1.88802
G1 X173.024 Y130.103 E1.93582
G1 X174.001 Y131.292 E1.987
G1 X174.858 Y132.446 E2.03481
G1 X175.73 Y133.752 E2.08704
G1 X176.468 Y134.985 E2.13483
G1 X177.208 Y136.373 E2.18715
G1 X177.836 Y137.708 E2.23622
G1 X178.42 Y139.123 E2.28713
G1 X178.89 Y140.44 E2.33364
G1 X179.335 Y141.909 E2.38469
G1 X179.684 Y143.301 E2.43243
G1 X179.987 Y144.822 E2.48401
G1 X180.198 Y146.243 E2.53179
G1 X180.35 Y147.783 E2.58326
G1 X180.421 Y149.218 E2.63105
G1 X180.421 Y150.78 E2.683
G1 X180.35 Y152.215 E2.73078
G1 X180.198 Y153.751 E2.78212
G1 X179.987 Y155.174 E2.82997
G1 X179.677 Y156.727 E2.88264
G1 X179.318 Y158.148 E2.93139
G1 X178.877 Y159.597 E2.98176
G1 X178.404 Y160.92 E3.0285
G1 X177.808 Y162.358 E3.08027
G1 X177.193 Y163.658 E3.1281
G1 X176.467 Y165.017 E3.17935
G1 X175.73 Y166.248 E3.22707
G1 X174.863 Y167.547 E3.27901
G1 X174.006 Y168.702 E3.32685
G1 X173.026 Y169.895 E3.3782
G1 X172.062 Y170.959 E3.42595
G1 X170.962 Y172.059 E3.47769
G1 X169.897 Y173.024 E3.52549
G1 X168.705 Y174.003 E3.5768
G1 X167.549 Y174.861 E3.62468
G1 X166.248 Y175.73 E3.67671
G1 X165.017 Y176.467 E3.72443
G1 X163.622 Y177.21 E3.777
G1 X162.286 Y177.838 E3.8261
G1 X160.879 Y178.419 E3.87673
G1 X159.563 Y178.889 E3.92321
G1 X158.091 Y179.335 E3.97437
G1 X156.699 Y179.684 E4.0221
G1 X155.174 Y179.987 E4.07381
G1 X153.751 Y180.198 E4.12166
G1 X152.215 Y180.35 E4.173
G1 X150.781 Y180.421 E4.22075
G1 X149.219 Y180.421 E4.2727
G1 X147.785 Y180.35 E4.32046
G1 X146.249 Y180.198 E4.37179
G1 X144.826 Y179.987 E4.41964
G1 X143.273 Y179.677 E4.47231
G1 X141.852 Y179.318 E4.52106
G1 X140.4 Y178.876 E4.57154
G1 X139.075 Y178.402 E4.61834
G1 X137.641 Y177.808 E4.66997
G1 X136.343 Y177.194 E4.71773
G1 X134.983 Y176.467 E4.76902
G1 X133.752 Y175.73 E4.81674
G1 X132.451 Y174.861 E4.86878
G1 X131.295 Y174.003 E4.91666
G1 X130.103 Y173.024 E4.96796
G1 X129.038 Y172.059 E5.01576
G1 X127.938 Y170.959 E5.0675
G1 X126.974 Y169.895 E5.11526
G1 X125.994 Y168.702 E5.16661
G1 X125.137 Y167.547 E5.21444
G1 X124.27 Y166.248 E5.26639
G1 X123.533 Y165.017 E5.31411
G1 X122.792 Y163.627 E5.3665
G1 X122.164 Y162.292 E5.41557
G1 X121.58 Y160.877 E5.46648
G1 X121.11 Y159.56 E5.51299
G1 X120.665 Y158.091 E5.56404
G1 X120.316 Y156.699 E5.61177
G1 X120.013 Y155.174 E5.66349
G1 X119.802 Y153.751 E5.71133
G1 X119.65 Y152.216 E5.76264
G1 X119.579 Y150.783 E5.81036
G1 X119.579 Y149.22 E5.86234
G1 X119.65 Y147.785 E5.91013
G1 X119.802 Y146.249 E5.96147
G1 X120.013 Y144.826 E6.00931
G1 X120.323 Y143.273 E6.06198
G1 X120.682 Y141.852 E6.11073
G1 X121.123 Y140.403 E6.16111
G1 X121.596 Y139.08 E6.20784
G1 X122.192 Y137.642 E6.25961
G1 X122.807 Y136.342 E6.30745
G1 X123.533 Y134.983 E6.35869
G1 F2700 E1.35869
G1 F300 Z0.4
G0 F6000 X121.487 Y143.567 Z0.4
G1 F300 Z0.2
G1 F2700 E6.35869
G1 F900 X121.846 Y142.146 E6.40744
G1 X122.253 Y140.807 E6.45399
G1 X122.726 Y139.484 E6.50072
G1 X123.276 Y138.155 E6.54856
G1 X123.891 Y136.855 E6.59639
G1 X124.562 Y135.599 E6.64375
G1 X125.299 Y134.368 E6.69147
G1 X126.101 Y133.168 E6.73948
G1 X126.958 Y132.013 E6.78731
G1 X127.863 Y130.91 E6.83477
G1 X128.827 Y129.846 E6.88252
G1 X129.844 Y128.83 E6.93033
G1 X130.909 Y127.865 E6.97813
G1 X132.011 Y126.96 E7.02556
G1 X133.167 Y126.102 E7.07344
G1 X134.368 Y125.299 E7.12149
G1 X135.599 Y124.562 E7.16921
G1 X136.885 Y123.878 E7.21766
G1 X138.218 Y123.251 E7.26666
G1 X139.522 Y122.712 E7.31359
G1 X140.841 Y122.241 E7.36017
G1 X142.2 Y121.829 E7.4074
G1 X143.592 Y121.48 E7.45513
G1 X145.002 Y121.2 E7.50295
G1 X146.425 Y120.989 E7.55079
G1 X147.844 Y120.849 E7.59822
G1 X149.278 Y120.778 E7.64597
G1 X150.722 Y120.778 E7.694
G1 X152.156 Y120.849 E7.74175
G1 X153.575 Y120.989 E7.78918
G1 X154.998 Y121.2 E7.83702
G1 X156.433 Y121.487 E7.8857
G1 X157.854 Y121.846 E7.93445
G1 X159.196 Y122.254 E7.9811
G1 X160.521 Y122.728 E8.0279
G1 X161.846 Y123.277 E8.07561
G1 X163.144 Y123.891 E8.12336
G1 X164.401 Y124.562 E8.17075
G1 X165.632 Y125.299 E8.21848
G1 X166.832 Y126.101 E8.26648
G1 X167.987 Y126.958 E8.31432
G1 X169.09 Y127.863 E8.36177
G1 X170.154 Y128.827 E8.40952
G1 X171.17 Y129.844 E8.45734
G1 X172.135 Y130.909 E8.50514
G1 X173.037 Y132.007 E8.5524
G1 X173.894 Y133.161 E8.60021
G1 X174.7 Y134.368 E8.64848
G1 X175.438 Y135.601 E8.69628
G1 X176.122 Y136.884 E8.74463
G1 X176.75 Y138.219 E8.7937
G1 X177.29 Y139.527 E8.84077
G1 X177.76 Y140.844 E8.88728
G1 X178.171 Y142.2 E8.93441
G1 X178.52 Y143.592 E8.98214
G1 X178.8 Y144.999 E9.02985
G1 X179.011 Y146.42 E9.07763
G1 X179.151 Y147.843 E9.12519
G1 X179.222 Y149.278 E9.17298
G1 X179.222 Y150.72 E9.22094
G1 X179.151 Y152.155 E9.26872
G1 X179.011 Y153.575 E9.31618
G1 X178.8 Y154.998 E9.36403
G1 X178.513 Y156.433 E9.4127
G1 X178.154 Y157.854 E9.46145
G1 X177.747 Y159.193 E9.508
G1 X177.274 Y160.516 E9.55473
G1 X176.724 Y161.845 E9.60257
G1 X176.109 Y163.145 E9.6504
G1 X175.438 Y164.401 E9.69776
G1 X174.701 Y165.632 E9.74548
G1 X173.899 Y166.832 E9.79349
G1 X173.042 Y167.987 E9.84132
G1 X172.137 Y169.09 E9.88878
G1 X171.173 Y170.154 E9.93653
G1 X170.156 Y171.17 E9.98434
G1 X169.091 Y172.135 E10.03214
G1 X167.989 Y173.04 E10.07957
G1 X166.833 Y173.898 E10.12745
G1 X165.632 Y174.701 E10.17551
G1 X164.401 Y175.438 E10.22323
G1 X163.112 Y176.124 E10.27179
G1 X161.776 Y176.752 E10.32089
G1 X160.476 Y177.288 E10.36766
G1 X159.16 Y177.758 E10.41414
G1 X157.8 Y178.171 E10.46141
G1 X156.408 Y178.52 E10.50914
G1 X154.998 Y178.8 E10.55696
G1 X153.575 Y179.011 E10.6048
G1 X152.156 Y179.151 E10.65223
G1 X150.722 Y179.222 E10.69998
G1 X149.278 Y179.222 E10.74801
G1 X147.844 Y179.151 E10.79576
G1 X146.425 Y179.011 E10.84319
G1 X145.002 Y178.8 E10.89103
G1 X143.567 Y178.513 E10.93971
G1 X142.146 Y178.154 E10.98846
G1 X140.804 Y177.746 E11.03511
G1 X139.479 Y177.272 E11.08191
G1 X138.154 Y176.723 E11.12961
G1 X136.856 Y176.109 E11.17737
G1 X135.599 Y175.438 E11.22476
G1 X134.368 Y174.701 E11.27249
G1 X133.167 Y173.898 E11.32054
G1 X132.011 Y173.04 E11.36842
G1 X130.909 Y172.135 E11.41585
G1 X129.844 Y171.17 E11.46365
G1 X128.827 Y170.154 E11.51146
G1 X127.863 Y169.09 E11.55921
G1 X126.958 Y167.987 E11.60667
G1 X126.101 Y166.832 E11.6545
G1 X125.299 Y165.632 E11.70251
G1 X124.562 Y164.401 E11.75023
G1 X123.878 Y163.116 E11.79865
G1 X123.25 Y161.781 E11.84772
G1 X122.71 Y160.473 E11.89478
G1 X122.24 Y159.156 E11.94129
G1 X121.829 Y157.8 E11.98842
G1 X121.48 Y156.408 E12.03615
G1 X121.2 Y154.998 E12.08396
G1 X120.989 Y153.575 E12.13181
G1 X120.849 Y152.156 E12.17923
G1 X120.778 Y150.723 E12.22695
G1 X120.778 Y149.28 E12.27495
G1 X120.849 Y147.845 E12.32273
G1 X120.989 Y146.425 E12.37019
G1 X121.2 Y145.002 E12.41804
G1 X121.487 Y143.567 E12.46671
G1 F2700 E7.46671
G1 F300 Z0.4
G0 F6000 X121.177 Y149.299 Z0.4
G1 F300 Z0.2
G1 F2700 E12.46671
G1 F900 X121.248 Y147.864 E12.5145
G1 X121.385 Y146.483 E12.56066
G1 X121.596 Y145.06 E12.6085
G1 X121.875 Y143.665 E12.65582
G1 X122.234 Y142.244 E12.70457
G1 X122.63 Y140.942 E12.74983
G1 X123.103 Y139.619 E12.79656
G1 X123.638 Y138.327 E12.84307
G1 X124.253 Y137.027 E12.89091
G1 X124.906 Y135.805 E12.93699
G1 X125.643 Y134.574 E12.98471
G1 X126.422 Y133.407 E13.03138
G1 X127.279 Y132.252 E13.07921
G1 X128.16 Y131.179 E13.12539
G1 X129.124 Y130.115 E13.17314
G1 X130.112 Y129.126 E13.21964
G1 X131.177 Y128.161 E13.26744
G1 X132.249 Y127.282 E13.31355
G1 X133.405 Y126.424 E13.36143
G1 X134.574 Y125.643 E13.40819
G1 X135.805 Y124.906 E13.45591
G1 X137.055 Y124.239 E13.50303
G1 X138.388 Y123.612 E13.55203
G1 X139.657 Y123.089 E13.59768
G1 X140.976 Y122.618 E13.64426
G1 X142.298 Y122.217 E13.69021
G1 X143.69 Y121.868 E13.73794
G1 X145.06 Y121.596 E13.7844
G1 X146.483 Y121.385 E13.83224
G1 X147.864 Y121.248 E13.8784
G1 X149.298 Y121.177 E13.92616
G1 X150.702 Y121.177 E13.97285
G1 X152.136 Y121.248 E14.02061
G1 X153.517 Y121.385 E14.06676
G1 X154.94 Y121.596 E14.11461
G1 X156.335 Y121.875 E14.16193
G1 X157.756 Y122.234 E14.21067
G1 X159.061 Y122.631 E14.25604
G1 X160.386 Y123.105 E14.30285
G1 X161.675 Y123.639 E14.34925
G1 X162.973 Y124.253 E14.39701
G1 X164.195 Y124.906 E14.44309
G1 X165.426 Y125.643 E14.49081
G1 X166.593 Y126.422 E14.53748
G1 X167.748 Y127.279 E14.58532
G1 X168.821 Y128.16 E14.63149
G1 X169.885 Y129.124 E14.67925
G1 X170.874 Y130.112 E14.72574
G1 X171.839 Y131.177 E14.77354
G1 X172.716 Y132.246 E14.81953
G1 X173.573 Y133.4 E14.86734
G1 X174.357 Y134.573 E14.91427
G1 X175.095 Y135.806 E14.96206
G1 X175.76 Y137.055 E15.00913
G1 X176.388 Y138.39 E15.0582
G1 X176.913 Y139.661 E15.10393
G1 X177.383 Y140.978 E15.15044
G1 X177.783 Y142.298 E15.19632
G1 X178.132 Y143.69 E15.24405
G1 X178.404 Y145.057 E15.29041
G1 X178.615 Y146.478 E15.33819
G1 X178.752 Y147.862 E15.38444
G1 X178.823 Y149.297 E15.43223
G1 X178.823 Y150.701 E15.47893
G1 X178.752 Y152.136 E15.52672
G1 X178.615 Y153.517 E15.57287
G1 X178.404 Y154.94 E15.62072
G1 X178.125 Y156.335 E15.66804
G1 X177.766 Y157.756 E15.71678
G1 X177.37 Y159.058 E15.76205
G1 X176.897 Y160.381 E15.80878
G1 X176.362 Y161.673 E15.85529
G1 X175.747 Y162.973 E15.90312
G1 X175.094 Y164.195 E15.9492
G1 X174.357 Y165.426 E15.99692
G1 X173.578 Y166.593 E16.04359
G1 X172.721 Y167.748 E16.09143
G1 X171.84 Y168.821 E16.1376
G1 X170.876 Y169.885 E16.18536
G1 X169.888 Y170.874 E16.23185
G1 X168.823 Y171.839 E16.27965
G1 X167.751 Y172.718 E16.32576
G1 X166.595 Y173.576 E16.37364
G1 X165.426 Y174.357 E16.4204
G1 X164.195 Y175.094 E16.46812
G1 X162.942 Y175.762 E16.51535
G1 X161.606 Y176.39 E16.56445
G1 X160.341 Y176.912 E16.60997
G1 X159.025 Y177.382 E16.65645
G1 X157.702 Y177.783 E16.70243
G1 X156.31 Y178.132 E16.75016
G1 X154.94 Y178.404 E16.79661
G1 X153.517 Y178.615 E16.84446
G1 X152.136 Y178.752 E16.89062
G1 X150.702 Y178.823 E16.93837
G1 X149.298 Y178.823 E16.98507
G1 X147.864 Y178.752 E17.03282
G1 X146.483 Y178.615 E17.07898
G1 X145.06 Y178.404 E17.12682
G1 X143.665 Y178.125 E17.17414
G1 X142.244 Y177.766 E17.22289
G1 X140.939 Y177.369 E17.26826
G1 X139.614 Y176.895 E17.31506
G1 X138.325 Y176.361 E17.36147
G1 X137.027 Y175.747 E17.40923
G1 X135.805 Y175.094 E17.45531
G1 X134.574 Y174.357 E17.50303
G1 X133.405 Y173.576 E17.54979
G1 X132.249 Y172.718 E17.59767
G1 X131.177 Y171.839 E17.64378
G1 X130.112 Y170.874 E17.69158
G1 X129.124 Y169.885 E17.73808
G1 X128.16 Y168.821 E17.78583
G1 X127.279 Y167.748 E17.83201
G1 X126.422 Y166.593 E17.87984
G1 X125.643 Y165.426 E17.92651
G1 X124.906 Y164.195 E17.97423
G1 X124.24 Y162.945 E18.02134
G1 X123.612 Y161.61 E18.07041
G1 X123.087 Y160.339 E18.11615
G1 X122.617 Y159.022 E18.16265
G1 X122.217 Y157.702 E18.20853
G1 X121.868 Y156.31 E18.25626
G1 X121.596 Y154.94 E18.30272
G1 X121.385 Y153.517 E18.35056
G1 X121.248 Y152.137 E18.39669
G1 X121.177 Y150.704 E18.44441
G1 X121.177 Y149.299 E18.49114
G0 F6000 X121.577 Y149.319
G1 F900 X121.648 Y147.884 E18.53893
G1 X121.78 Y146.542 E18.58378
G1 X121.991 Y145.119 E18.63162
G1 X122.262 Y143.763 E18.67761
G1 X122.621 Y142.342 E18.72636
G1 X123.007 Y141.076 E18.77038
G1 X123.48 Y139.753 E18.81711
G1 X123.999 Y138.498 E18.86228
G1 X124.614 Y137.198 E18.91012
G1 X125.249 Y136.01 E18.95492
G1 X125.986 Y134.779 E19.00264
G1 X126.744 Y133.645 E19.04801
G1 X127.601 Y132.49 E19.09584
G1 X128.456 Y131.447 E19.1407
G1 X129.42 Y130.383 E19.18845
G1 X130.381 Y129.423 E19.23363
G1 X131.446 Y128.458 E19.28143
G1 X132.487 Y127.603 E19.32624
G1 X133.643 Y126.745 E19.37412
G1 X134.779 Y125.986 E19.41956
G1 X136.01 Y125.249 E19.46728
G1 X137.225 Y124.601 E19.51308
G1 X138.558 Y123.974 E19.56207
G1 X139.791 Y123.466 E19.60643
G1 X141.11 Y122.995 E19.65301
G1 X142.395 Y122.605 E19.69768
G1 X143.787 Y122.256 E19.74541
G1 X145.119 Y121.991 E19.79058
G1 X146.542 Y121.78 E19.83843
G1 X147.884 Y121.648 E19.88328
G1 X149.318 Y121.577 E19.93103
G1 X150.682 Y121.577 E19.9764
G1 X152.116 Y121.648 E20.02415
G1 X153.458 Y121.78 E20.069
G1 X154.881 Y121.991 E20.11685
G1 X156.237 Y122.262 E20.16284
G1 X157.658 Y122.621 E20.21159
G1 X158.926 Y123.007 E20.25567
G1 X160.251 Y123.481 E20.30248
G1 X161.504 Y124 E20.34758
G1 X162.802 Y124.614 E20.39534
G1 X163.99 Y125.249 E20.44015
G1 X165.221 Y125.986 E20.48787
G1 X166.355 Y126.744 E20.53323
G1 X167.51 Y127.601 E20.58107
G1 X168.553 Y128.456 E20.62593
G1 X169.617 Y129.42 E20.67368
G1 X170.577 Y130.381 E20.71886
G1 X171.542 Y131.446 E20.76666
G1 X172.395 Y132.484 E20.81134
G1 X173.252 Y133.638 E20.85915
G1 X174.014 Y134.779 E20.90479
G1 X174.752 Y136.012 E20.95258
G1 X175.398 Y137.225 E20.99829
G1 X176.026 Y138.56 E21.04736
G1 X176.536 Y139.796 E21.09183
G1 X177.006 Y141.113 E21.13834
G1 X177.395 Y142.395 E21.1829
G1 X177.744 Y143.787 E21.23063
G1 X178.008 Y145.116 E21.2757
G1 X178.219 Y146.537 E21.32348
G1 X178.352 Y147.882 E21.36843
G1 X178.423 Y149.317 E21.41622
G1 X178.423 Y150.681 E21.46159
G1 X178.352 Y152.116 E21.50937
G1 X178.22 Y153.458 E21.55422
G1 X178.009 Y154.881 E21.60207
G1 X177.738 Y156.237 E21.64806
G1 X177.379 Y157.658 E21.69681
G1 X176.993 Y158.924 E21.74083
G1 X176.52 Y160.247 E21.78756
G1 X176.001 Y161.502 E21.83273
G1 X175.386 Y162.802 E21.88056
G1 X174.751 Y163.99 E21.92537
G1 X174.014 Y165.221 E21.97309
G1 X173.256 Y166.355 E22.01845
G1 X172.399 Y167.51 E22.06629
G1 X171.544 Y168.553 E22.11115
G1 X170.58 Y169.617 E22.1589
G1 X169.619 Y170.577 E22.20408
G1 X168.554 Y171.542 E22.25188
G1 X167.513 Y172.397 E22.29668
G1 X166.357 Y173.255 E22.34457
G1 X165.221 Y174.014 E22.39001
G1 X163.99 Y174.751 E22.43773
G1 X162.772 Y175.4 E22.48363
G1 X161.436 Y176.028 E22.53273
G1 X160.206 Y176.535 E22.57698
G1 X158.89 Y177.005 E22.62346
G1 X157.605 Y177.395 E22.66812
G1 X156.213 Y177.744 E22.71585
G1 X154.881 Y178.009 E22.76102
G1 X153.458 Y178.22 E22.80887
G1 X152.116 Y178.352 E22.85372
G1 X150.682 Y178.423 E22.90147
G1 X149.318 Y178.423 E22.94684
G1 X147.884 Y178.352 E22.99459
G1 X146.542 Y178.22 E23.03944
G1 X145.119 Y178.009 E23.08729
G1 X143.763 Y177.738 E23.13328
G1 X142.342 Y177.379 E23.18203
G1 X141.074 Y176.993 E23.22612
G1 X139.749 Y176.519 E23.27292
