;FLAVOR:Marlin
;TIME:3989
;Filament used: 3.61671m
;Layer height: 0.2
;MINX:119.201
;MINY:119.201
;MINZ:0.2
;MAXX:180.799
;MAXY:180.799
;MAXZ:35.2
;Generated with Cura_SteamEngine 5.0.0
M140 S95
M105
M190 S95
M104 S230
M105
M109 S230
M82 ;absolute extrusion mode
; LONGER Start G-code
G21 ; metric values
G90 ; absolute positioning
M82 ; set extruder to absolute mode
M107 ; start with the fan off
G92 E0 ; Reset Extruder
G28 ; Home all axes
G1 Z2.0 F3000 ; Move Z Axis up little to prevent scratching of Heat Bed
G1 X0.1 Y20 Z0.3 F5000.0 ; Move to start position
G1 X0.1 Y200.0 Z0.3 F1500.0 E15 ; Draw the first line
G1 X0.4 Y200.0 Z0.3 F5000.0 ; Move to side a little
G1 X0.4 Y20 Z0.3 F1500.0 E30 ; Draw the second line
G92 E0 ; Reset Extruder
G1 Z2.0 F3000 ; Move Z Axis up little to prevent scratching of Heat Bed
G1 X5 Y20 Z0.3 F5000.0 ; Move over to prevent blob squish

G92 E0
G92 E0
G1 F2700 E-5
;LAYER_COUNT:175
;LAYER:0
M107
G1 F300 Z0.4
G0 F6000 X127.609 Y128.871 Z0.4
G1 F300 Z0.4
G0 F6000 X122.316 Y136.534
;TYPE:SKIRT
G1 F300 Z0.2
G1 F2700 E0
G1 F1200 X122.813 Y135.526 E0.03738
G1 X123.211 Y134.831 E0.06402
G1 X124.15 Y133.282 E0.12426
G1 X124.766 Y132.343 E0.16162
G1 X125.222 Y131.731 E0.187
G1 X126.338 Y130.306 E0.2472
G1 X127.062 Y129.446 E0.28459
G1 X127.609 Y128.871 E0.31099
G1 X128.891 Y127.59 E0.37127
G1 X129.714 Y126.825 E0.40864
G1 X130.329 Y126.319 E0.43513
G1 X131.758 Y125.202 E0.49545
G1 X132.667 Y124.541 E0.53283
G1 X133.313 Y124.129 E0.55832
G1 X134.861 Y123.193 E0.61848
G1 X135.843 Y122.646 E0.65587
G1 X136.566 Y122.3 E0.68253
G1 X138.219 Y121.558 E0.74279
G1 X139.26 Y121.134 E0.78018
G1 X140.011 Y120.881 E0.80654
G1 X141.74 Y120.345 E0.86674
G1 X142.824 Y120.05 E0.90411
G1 X143.571 Y119.895 E0.92948
G1 X145.356 Y119.568 E0.98984
G1 X146.468 Y119.405 E1.02722
G1 X147.251 Y119.338 E1.05336
G1 X149.057 Y119.229 E1.11354
G1 X150.181 Y119.201 E1.15093
G1 X150.97 Y119.229 E1.17719
G1 X152.776 Y119.339 E1.23737
G1 X153.894 Y119.447 E1.27473
G1 X154.687 Y119.573 E1.30143
G1 X156.472 Y119.903 E1.36181
G1 X157.57 Y120.147 E1.39922
G1 X158.305 Y120.357 E1.42465
G1 X160.033 Y120.896 E1.48485
G1 X161.093 Y121.268 E1.52221
G1 X161.815 Y121.572 E1.54827
G1 X163.465 Y122.315 E1.60846
G1 X164.473 Y122.813 E1.64585
G1 X165.169 Y123.211 E1.67252
G1 X166.718 Y124.15 E1.73276
G1 X167.657 Y124.766 E1.77012
G1 X168.271 Y125.224 E1.79559
G1 X169.698 Y126.342 E1.85589
G1 X170.558 Y127.066 E1.89328
G1 X171.131 Y127.611 E1.91958
G1 X172.41 Y128.891 E1.97976
G1 X173.175 Y129.714 E2.01714
G1 X173.681 Y130.329 E2.04362
G1 X174.798 Y131.758 E2.10395
G1 X175.459 Y132.667 E2.14133
G1 X175.871 Y133.313 E2.16682
G1 X176.807 Y134.861 E2.22698
G1 X177.354 Y135.843 E2.26437
G1 X177.7 Y136.566 E2.29103
G1 X178.442 Y138.219 E2.35129
G1 X178.866 Y139.26 E2.38868
G1 X179.119 Y140.011 E2.41504
G1 X179.655 Y141.74 E2.47524
G1 X179.95 Y142.824 E2.51261
G1 X180.103 Y143.557 E2.53751
G1 X180.43 Y145.333 E2.59758
G1 X180.594 Y146.445 E2.63496
G1 X180.663 Y147.246 E2.6617
G1 X180.772 Y149.06 E2.72214
G1 X180.799 Y150.184 E2.75954
G1 X180.771 Y150.968 E2.78563
G1 X180.661 Y152.775 E2.84584
G1 X180.553 Y153.894 E2.88323
G1 X180.427 Y154.687 E2.90994
G1 X180.097 Y156.472 E2.97032
G1 X179.853 Y157.57 E3.00773
G1 X179.644 Y158.302 E3.03305
G1 X179.106 Y160.028 E3.09318
G1 X178.734 Y161.088 E3.13054
G1 X178.428 Y161.814 E3.15674
G1 X177.684 Y163.466 E3.21701
G1 X177.187 Y164.474 E3.25439
G1 X176.789 Y165.169 E3.28102
G1 X175.85 Y166.718 E3.34127
G1 X175.234 Y167.657 E3.37862
G1 X174.778 Y168.269 E3.40401
G1 X173.662 Y169.694 E3.46421
G1 X172.938 Y170.554 E3.5016
G1 X172.391 Y171.129 E3.52799
G1 X171.109 Y172.41 E3.58827
G1 X170.286 Y173.175 E3.62564
G1 X169.671 Y173.681 E3.65213
G1 X168.242 Y174.798 E3.71246
G1 X167.333 Y175.459 E3.74984
G1 X166.687 Y175.871 E3.77532
G1 X165.139 Y176.807 E3.83549
G1 X164.157 Y177.354 E3.87288
G1 X163.434 Y177.7 E3.89954
G1 X161.781 Y178.442 E3.9598
G1 X160.74 Y178.866 E3.99719
G1 X159.989 Y179.119 E4.02354
G1 X158.26 Y179.655 E4.08375
G1 X157.176 Y179.95 E4.12112
G1 X156.429 Y180.105 E4.14649
G1 X154.644 Y180.432 E4.20685
G1 X153.532 Y180.595 E4.24423
G1 X152.749 Y180.662 E4.27037
G1 X150.943 Y180.771 E4.33054
G1 X149.819 Y180.799 E4.36794
G1 X149.03 Y180.771 E4.3942
G1 X147.224 Y180.661 E4.45438
G1 X146.106 Y180.553 E4.49173
G1 X145.313 Y180.427 E4.51844
G1 X143.528 Y180.097 E4.57882
G1 X142.43 Y179.853 E4.61623
G1 X141.695 Y179.643 E4.64165
G1 X139.967 Y179.104 E4.70186
G1 X138.907 Y178.732 E4.73922
G1 X138.184 Y178.427 E4.76532
G1 X136.532 Y177.683 E4.82558
G1 X135.524 Y177.186 E4.86296
G1 X134.828 Y176.787 E4.88964
G1 X133.281 Y175.849 E4.94982
G1 X132.341 Y175.233 E4.98719
G1 X131.729 Y174.776 E5.0126
G1 X130.302 Y173.658 E5.07289
G1 X129.442 Y172.934 E5.11028
G1 X128.869 Y172.389 E5.13659
G1 X127.588 Y171.107 E5.19686
G1 X126.823 Y170.284 E5.23424
G1 X126.315 Y169.667 E5.26082
G1 X125.2 Y168.24 E5.32105
G1 X124.54 Y167.33 E5.35844
G1 X124.129 Y166.686 E5.38385
G1 X123.192 Y165.136 E5.44409
G1 X122.645 Y164.154 E5.48148
G1 X122.299 Y163.432 E5.50811
G1 X121.557 Y161.779 E5.56837
G1 X121.133 Y160.738 E5.60576
G1 X120.879 Y159.984 E5.63222
G1 X120.344 Y158.257 E5.69235
G1 X120.049 Y157.173 E5.72972
G1 X119.895 Y156.429 E5.75499
G1 X119.568 Y154.644 E5.81534
G1 X119.405 Y153.532 E5.85272
G1 X119.338 Y152.749 E5.87886
G1 X119.229 Y150.944 E5.93901
G1 X119.201 Y149.821 E5.97637
G1 X119.229 Y149.032 E6.00263
G1 X119.339 Y147.225 E6.06284
G1 X119.447 Y146.106 E6.10023
G1 X119.573 Y145.313 E6.12694
G1 X119.903 Y143.528 E6.18731
G1 X120.147 Y142.43 E6.22472
G1 X120.356 Y141.698 E6.25004
G1 X120.894 Y139.972 E6.31017
G1 X121.266 Y138.912 E6.34754
G1 X121.572 Y138.186 E6.37374
G1 X122.316 Y136.534 E6.434
G1 F2700 E1.434
G1 F300 Z0.4
G0 F6000 X121.083 Y143.746 Z0.4
G1 F300 Z0.2
G1 F2700 E6.434
G1 F1200 X121.319 Y142.691 E6.46996
G1 X121.501 Y142.055 E6.49196
G1 X122.039 Y140.329 E6.55209
G1 X122.399 Y139.31 E6.58804
G1 X122.666 Y138.679 E6.61083
G1 X123.41 Y137.027 E6.67109
G1 X123.89 Y136.059 E6.70702
G1 X124.237 Y135.454 E6.73022
G1 X125.176 Y133.905 E6.79047
G1 X125.77 Y133.002 E6.82642
G1 X126.166 Y132.471 E6.84845
G1 X127.282 Y131.046 E6.90865
G1 X127.98 Y130.221 E6.94459
G1 X128.457 Y129.72 E6.9676
G1 X129.739 Y128.439 E7.02788
G1 X130.531 Y127.704 E7.06382
G1 X131.068 Y127.264 E7.08691
G1 X132.497 Y126.147 E7.14723
G1 X133.372 Y125.514 E7.18315
G1 X133.934 Y125.156 E7.20532
G1 X135.482 Y124.22 E7.26548
G1 X136.426 Y123.696 E7.30139
G1 X137.057 Y123.394 E7.32466
G1 X138.71 Y122.652 E7.38492
G1 X139.712 Y122.247 E7.42087
G1 X140.366 Y122.027 E7.44382
G1 X142.095 Y121.491 E7.50403
G1 X143.138 Y121.209 E7.53996
G1 X143.787 Y121.075 E7.562
G1 X145.572 Y120.748 E7.62236
G1 X146.642 Y120.593 E7.65832
G1 X147.323 Y120.536 E7.68105
G1 X149.129 Y120.427 E7.74123
G1 X150.21 Y120.401 E7.77719
G1 X150.897 Y120.427 E7.80006
G1 X152.703 Y120.537 E7.86024
G1 X153.778 Y120.643 E7.89616
G1 X154.469 Y120.753 E7.91944
G1 X156.254 Y121.083 E7.97981
G1 X157.309 Y121.319 E8.01577
G1 X157.947 Y121.502 E8.03784
G1 X159.675 Y122.041 E8.09805
G1 X160.694 Y122.401 E8.13399
G1 X161.323 Y122.666 E8.1567
G1 X162.973 Y123.409 E8.21688
G1 X163.941 Y123.889 E8.25282
G1 X164.546 Y124.237 E8.27603
G1 X166.095 Y125.176 E8.33628
G1 X166.998 Y125.77 E8.37223
G1 X167.531 Y126.168 E8.39435
G1 X168.958 Y127.286 E8.45465
G1 X169.784 Y127.984 E8.49062
G1 X170.282 Y128.459 E8.51351
G1 X171.561 Y129.739 E8.57369
G1 X172.296 Y130.531 E8.60963
G1 X172.736 Y131.068 E8.63272
G1 X173.853 Y132.497 E8.69304
G1 X174.486 Y133.372 E8.72896
G1 X174.844 Y133.934 E8.75113
G1 X175.78 Y135.482 E8.81129
G1 X176.304 Y136.426 E8.8472
G1 X176.606 Y137.057 E8.87047
G1 X177.348 Y138.71 E8.93073
G1 X177.753 Y139.712 E8.96668
G1 X177.973 Y140.366 E8.98963
G1 X178.509 Y142.095 E9.04984
G1 X178.791 Y143.138 E9.08577
G1 X178.923 Y143.774 E9.10738
G1 X179.25 Y145.55 E9.16744
G1 X179.406 Y146.619 E9.20337
G1 X179.465 Y147.318 E9.2267
G1 X179.574 Y149.132 E9.28715
G1 X179.599 Y150.213 E9.32311
G1 X179.573 Y150.895 E9.34581
G1 X179.463 Y152.702 E9.40602
G1 X179.357 Y153.778 E9.44198
G1 X179.247 Y154.469 E9.46525
G1 X178.917 Y156.254 E9.52563
G1 X178.681 Y157.309 E9.56159
G1 X178.499 Y157.945 E9.58359
G1 X177.961 Y159.671 E9.64372
G1 X177.601 Y160.69 E9.67967
G1 X177.334 Y161.321 E9.70245
G1 X176.59 Y162.973 E9.76271
G1 X176.11 Y163.941 E9.79865
G1 X175.763 Y164.546 E9.82185
G1 X174.824 Y166.095 E9.8821
G1 X174.23 Y166.998 E9.91805
G1 X173.834 Y167.529 E9.94008
G1 X172.718 Y168.954 E10.00028
G1 X172.02 Y169.779 E10.03622
G1 X171.543 Y170.28 E10.05923
G1 X170.261 Y171.561 E10.11951
G1 X169.469 Y172.296 E10.15544
G1 X168.932 Y172.736 E10.17853
G1 X167.503 Y173.853 E10.23886
G1 X166.628 Y174.486 E10.27478
G1 X166.066 Y174.844 E10.29694
G1 X164.518 Y175.78 E10.35711
G1 X163.574 Y176.304 E10.39302
G1 X162.943 Y176.606 E10.41629
G1 X161.29 Y177.348 E10.47655
G1 X160.288 Y177.753 E10.5125
G1 X159.634 Y177.973 E10.53545
G1 X157.905 Y178.509 E10.59565
G1 X156.862 Y178.791 E10.63159
G1 X156.213 Y178.925 E10.65363
G1 X154.428 Y179.252 E10.71399
G1 X153.358 Y179.407 E10.74995
G1 X152.677 Y179.464 E10.77268
G1 X150.871 Y179.573 E10.83285
G1 X149.79 Y179.599 E10.86882
G1 X149.103 Y179.573 E10.89168
G1 X147.297 Y179.463 E10.95186
G1 X146.222 Y179.357 E10.98779
G1 X145.531 Y179.247 E11.01106
G1 X143.746 Y178.917 E11.07144
G1 X142.691 Y178.681 E11.1074
G1 X142.053 Y178.498 E11.12947
G1 X140.325 Y177.959 E11.18968
G1 X139.306 Y177.599 E11.22562
G1 X138.677 Y177.333 E11.24834
G1 X137.025 Y176.589 E11.3086
G1 X136.057 Y176.109 E11.34453
G1 X135.45 Y175.761 E11.3678
G1 X133.903 Y174.823 E11.42798
G1 X133.001 Y174.229 E11.4639
G1 X132.469 Y173.832 E11.48598
G1 X131.042 Y172.714 E11.54627
G1 X130.216 Y172.016 E11.58224
G1 X129.718 Y171.541 E11.60513
G1 X128.437 Y170.259 E11.66541
G1 X127.702 Y169.467 E11.70135
G1 X127.26 Y168.928 E11.72453
G1 X126.145 Y167.501 E11.78476
G1 X125.512 Y166.626 E11.82068
G1 X125.156 Y166.065 E11.84278
G1 X124.219 Y164.515 E11.90302
G1 X123.694 Y163.57 E11.93898
G1 X123.393 Y162.941 E11.96217
G1 X122.651 Y161.288 E12.02243
G1 X122.246 Y160.286 E12.05838
G1 X122.025 Y159.629 E12.08143
G1 X121.49 Y157.902 E12.14157
G1 X121.209 Y156.859 E12.17749
G1 X121.075 Y156.213 E12.19944
G1 X120.748 Y154.428 E12.2598
G1 X120.593 Y153.358 E12.29576
G1 X120.536 Y152.677 E12.31848
G1 X120.427 Y150.872 E12.37863
G1 X120.401 Y149.792 E12.41456
G1 X120.427 Y149.105 E12.43743
G1 X120.537 Y147.298 E12.49764
G1 X120.643 Y146.222 E12.5336
G1 X120.753 Y145.531 E12.55687
G1 X121.083 Y143.746 E12.61725
G1 F2700 E7.61725
G1 F300 Z0.4
G0 F6000 X121.202 Y149.774 Z0.4
G1 F300 Z0.2
G1 F2700 E12.61725
G1 F1200 X121.225 Y149.153 E12.63792
G1 X121.335 Y147.346 E12.69813
G1 X121.439 Y146.301 E12.73306
G1 X121.54 Y145.676 E12.75411
G1 X121.87 Y143.891 E12.81449
G1 X122.1 Y142.866 E12.84943
G1 X122.265 Y142.293 E12.86926
G1 X122.803 Y140.567 E12.92939
G1 X123.154 Y139.577 E12.96433
G1 X123.395 Y139.007 E12.98491
G1 X124.139 Y137.355 E13.04517
G1 X124.607 Y136.414 E13.08013
G1 X124.921 Y135.868 E13.10108
G1 X125.86 Y134.319 E13.16132
G1 X126.438 Y133.442 E13.19626
G1 X126.796 Y132.964 E13.21612
G1 X127.912 Y131.539 E13.27632
G1 X128.591 Y130.737 E13.31127
G1 X129.023 Y130.286 E13.33204
G1 X130.305 Y129.005 E13.39232
G1 X131.076 Y128.291 E13.42727
G1 X131.56 Y127.894 E13.44809
G1 X132.989 Y126.777 E13.50842
G1 X133.841 Y126.162 E13.54337
G1 X134.348 Y125.841 E13.56333
G1 X135.896 Y124.905 E13.62349
G1 X136.815 Y124.396 E13.65843
G1 X137.385 Y124.124 E13.67944
G1 X139.038 Y123.382 E13.7397
G1 X140.012 Y122.989 E13.77464
G1 X140.603 Y122.791 E13.79537
G1 X142.332 Y122.255 E13.85557
G1 X143.346 Y121.982 E13.8905
G1 X143.931 Y121.862 E13.91036
G1 X145.716 Y121.535 E13.97072
G1 X146.756 Y121.385 E14.00567
G1 X147.372 Y121.334 E14.02623
G1 X149.178 Y121.225 E14.0864
G1 X150.228 Y121.202 E14.12134
G1 X150.848 Y121.226 E14.14197
G1 X152.654 Y121.336 E14.20215
G1 X153.699 Y121.439 E14.23708
G1 X154.324 Y121.54 E14.25813
G1 X156.109 Y121.87 E14.31851
G1 X157.134 Y122.1 E14.35345
G1 X157.709 Y122.266 E14.37336
G1 X159.437 Y122.805 E14.43356
G1 X160.427 Y123.156 E14.4685
G1 X160.994 Y123.396 E14.48897
G1 X162.644 Y124.139 E14.54916
G1 X163.585 Y124.606 E14.5841
G1 X164.132 Y124.921 E14.60509
G1 X165.681 Y125.86 E14.66534
G1 X166.558 Y126.438 E14.70028
G1 X167.038 Y126.798 E14.72023
G1 X168.465 Y127.916 E14.78053
G1 X169.266 Y128.595 E14.81545
G1 X169.716 Y129.025 E14.83615
G1 X170.995 Y130.305 E14.89634
G1 X171.709 Y131.076 E14.93129
G1 X172.106 Y131.56 E14.95211
G1 X173.223 Y132.989 E15.01243
G1 X173.838 Y133.841 E15.04738
G1 X174.159 Y134.348 E15.06734
G1 X175.095 Y135.896 E15.12751
G1 X175.604 Y136.815 E15.16245
G1 X175.876 Y137.385 E15.18346
G1 X176.618 Y139.038 E15.24372
G1 X177.011 Y140.012 E15.27865
G1 X177.209 Y140.603 E15.29938
G1 X177.745 Y142.332 E15.35959
G1 X178.018 Y143.346 E15.39452
G1 X178.136 Y143.919 E15.41397
G1 X178.463 Y145.695 E15.47404
G1 X178.614 Y146.735 E15.50899
G1 X178.666 Y147.366 E15.53005
G1 X178.775 Y149.18 E15.59049
G1 X178.798 Y150.231 E15.62546
G1 X178.775 Y150.847 E15.64596
G1 X178.665 Y152.654 E15.70617
G1 X178.561 Y153.699 E15.7411
G1 X178.46 Y154.324 E15.76216
G1 X178.13 Y156.109 E15.82253
G1 X177.9 Y157.134 E15.85747
G1 X177.735 Y157.707 E15.8773
G1 X177.197 Y159.433 E15.93744
G1 X176.846 Y160.423 E15.97237
G1 X176.605 Y160.993 E15.99295
G1 X175.861 Y162.645 E16.05322
G1 X175.393 Y163.586 E16.08817
G1 X175.079 Y164.132 E16.10912
G1 X174.14 Y165.681 E16.16937
G1 X173.562 Y166.558 E16.2043
G1 X173.204 Y167.036 E16.22416
G1 X172.088 Y168.461 E16.28436
G1 X171.409 Y169.263 E16.31932
G1 X170.977 Y169.714 E16.34009
G1 X169.695 Y170.995 E16.40036
G1 X168.924 Y171.709 E16.43532
G1 X168.44 Y172.106 E16.45614
G1 X167.011 Y173.223 E16.51646
G1 X166.159 Y173.838 E16.55141
G1 X165.652 Y174.159 E16.57137
G1 X164.104 Y175.095 E16.63154
G1 X163.185 Y175.604 E16.66648
G1 X162.615 Y175.876 E16.68748
G1 X160.962 Y176.618 E16.74775
G1 X159.988 Y177.011 E16.78268
G1 X159.397 Y177.209 E16.80341
G1 X157.668 Y177.745 E16.86362
G1 X156.654 Y178.018 E16.89854
G1 X156.069 Y178.138 E16.91841
G1 X154.284 Y178.465 E16.97876
G1 X153.244 Y178.615 E17.01371
G1 X152.628 Y178.666 E17.03427
G1 X150.822 Y178.775 E17.09445
G1 X149.772 Y178.798 E17.12938
G1 X149.152 Y178.774 E17.15002
G1 X147.346 Y178.664 E17.2102
G1 X146.301 Y178.561 E17.24512
G1 X145.676 Y178.46 E17.26618
G1 X143.891 Y178.13 E17.32655
G1 X142.866 Y177.9 E17.36149
G1 X142.291 Y177.734 E17.3814
G1 X140.563 Y177.195 E17.4416
G1 X139.573 Y176.844 E17.47654
G1 X139.005 Y176.604 E17.49705
G1 X137.353 Y175.86 E17.55731
G1 X136.412 Y175.392 E17.59226
G1 X135.865 Y175.077 E17.61326
G1 X134.318 Y174.139 E17.67343
G1 X133.441 Y173.561 E17.70837
G1 X132.962 Y173.202 E17.72827
G1 X131.535 Y172.084 E17.78857
G1 X130.734 Y171.405 E17.82349
G1 X130.284 Y170.975 E17.8442
G1 X129.003 Y169.693 E17.90447
G1 X128.289 Y168.922 E17.93942
G1 X127.891 Y168.436 E17.96032
G1 X126.776 Y167.009 E18.02055
G1 X126.161 Y166.157 E18.0555
G1 X125.84 Y165.651 E18.07543
G1 X124.903 Y164.101 E18.13567
G1 X124.394 Y163.182 E18.17061
G1 X124.123 Y162.613 E18.19157
G1 X123.381 Y160.96 E18.25184
G1 X122.988 Y159.986 E18.28677
G1 X122.789 Y159.393 E18.30757
G1 X122.254 Y157.666 E18.36771
G1 X121.982 Y156.651 E18.40266
G1 X121.862 Y156.069 E18.42242
G1 X121.535 Y154.284 E18.48278
G1 X121.385 Y153.244 E18.51773
G1 X121.334 Y152.629 E18.53825
G1 X121.225 Y150.824 E18.5984
G1 X121.202 Y149.774 E18.63333
G0 F6000 X121.602 Y149.765
G1 F1200 X121.625 Y149.178 E18.65287
G1 X121.735 Y147.371 E18.71308
G1 X121.838 Y146.341 E18.74751
G1 X121.933 Y145.749 E18.76745
G1 X122.263 Y143.964 E18.82783
G1 X122.491 Y142.954 E18.86226
G1 X122.647 Y142.412 E18.88102
G1 X123.185 Y140.686 E18.94115
G1 X123.531 Y139.711 E18.97556
G1 X123.76 Y139.171 E18.99507
G1 X124.504 Y137.519 E19.05533
G1 X124.965 Y136.593 E19.08974
G1 X125.263 Y136.076 E19.10959
G1 X126.202 Y134.527 E19.16983
G1 X126.772 Y133.663 E19.20426
G1 X127.111 Y133.211 E19.22305
G1 X128.227 Y131.786 E19.28325
G1 X128.897 Y130.996 E19.31771
